Taquilla/Resources/02_Canon LUTs_Gritty/02_Canon LUTs_Gritty.cube
LUT_3D_SIZE 16
-0.088175 -0.088175 -0.088175
-0.061513 -0.088175 -0.088175
0.146701 -0.088175 -0.088175
0.243991 -0.088175 -0.088175
0.334761 -0.088175 -0.088175
0.419055 -0.088175 -0.088175
0.500663 -0.088175 -0.088175
0.580800 -0.088175 -0.088175
0.656717 -0.088175 -0.088175
0.728210 -0.088175 -0.088175
0.795133 -0.088175 -0.088175
0.859376 -0.088175 -0.088175
0.917130 -0.088175 -0.088175
0.967300 -0.088175 -0.088175
0.997774 -0.088175 -0.088175
1.051746 -0.088175 -0.088175
-0.088175 -0.061513 -0.088175
-0.061513 -0.061513 -0.088175
0.146701 -0.066955 -0.088175
0.243991 -0.063946 -0.088175
0.334761 -0.060410 -0.088175
0.419055 -0.057699 -0.088175
0.500663 -0.055445 -0.088175
0.580800 -0.053435 -0.088175
0.656717 -0.052325 -0.088175
0.728210 -0.052005 -0.088175
0.795133 -0.052310 -0.088175
0.859376 -0.053039 -0.088175
0.917130 -0.054352 -0.088175
0.967300 -0.056528 -0.088175
0.997774 -0.060165 -0.088175
1.051746 -0.061513 -0.088175
-0.088175 0.105007 -0.088175
-0.066617 0.105007 -0.088175
0.147857 0.105007 -0.088175
0.243991 0.111782 -0.088175
0.334761 0.119392 -0.088175
0.419055 0.124381 -0.088175
0.500663 0.128115 -0.088175
0.580800 0.131159 -0.088175
0.656717 0.132742 -0.088175
0.728210 0.133193 -0.088175
0.795133 0.133713 -0.088175
0.859376 0.131254 -0.088175
0.917130 0.129492 -0.088175
0.967300 0.126765 -0.088175
0.997774 0.119794 -0.088175
1.051746 0.117079 -0.088175
-0.088175 0.190930 -0.088175
-0.063638 0.190930 -0.088175
0.157061 0.190930 -0.088175
0.245053 0.190930 -0.088175
0.334761 0.200638 -0.088175
0.419055 0.205660 -0.088175
0.500663 0.211345 -0.088175
0.580800 0.215401 -0.088175
0.656717 0.217490 -0.088175
0.728210 0.218093 -0.088175
0.795133 0.217490 -0.088175
0.859376 0.216151 -0.088175
0.917130 0.214018 -0.088175
0.967300 0.208574 -0.088175
0.997774 0.200397 -0.088175
1.051746 0.196896 -0.088175
-0.088175 0.274114 -0.088175
-0.060518 0.274114 -0.088175
0.163923 0.274114 -0.088175
0.254580 0.274114 -0.088175
0.334761 0.274720 -0.088175
0.419055 0.282912 -0.088175
0.500663 0.289363 -0.088175
0.580800 0.294610 -0.088175
0.656717 0.297381 -0.088175
0.728210 0.298124 -0.088175
0.795133 0.297381 -0.088175
0.859376 0.296162 -0.088175
0.917130 0.291863 -0.088175
0.967300 0.286378 -0.088175
0.997774 0.275263 -0.088175
1.051746 0.270765 -0.088175
-0.088175 0.357617 -0.088175
-0.057799 0.357617 -0.088175
0.170725 0.357617 -0.088175
0.261949 0.357617 -0.088175
0.343808 0.358034 -0.088175
0.419055 0.358712 -0.088175
0.500663 0.365862 -0.088175
0.580800 0.372387 -0.088175
0.656717 0.375708 -0.088175
0.728210 0.376700 -0.088175
0.795133 0.375708 -0.088175
0.859376 0.373786 -0.088175
0.917130 0.369020 -0.088175
0.967300 0.362475 -0.088175
0.997774 0.348519 -0.088175
1.051746 0.342948 -0.088175
-0.088175 0.441813 -0.088175
-0.055445 0.441813 -0.088175
0.175231 0.441813 -0.088175
0.267190 0.441813 -0.088175
0.349787 0.441813 -0.088175
0.425815 0.441712 -0.088175
0.500663 0.441813 -0.088175
0.580800 0.449549 -0.088175
0.656717 0.453580 -0.088175
0.728210 0.454717 -0.088175
0.795133 0.453580 -0.088175
0.859376 0.450796 -0.088175
0.917130 0.446483 -0.088175
0.967300 0.437902 -0.088175
0.997774 0.421043 -0.088175
1.051746 0.414388 -0.088175
-0.088175 0.526485 -0.088175
-0.053435 0.526485 -0.088175
0.178585 0.526485 -0.088175
0.272406 0.526485 -0.088175
0.355703 0.526485 -0.088175
0.432572 0.526485 -0.088175
0.508062 0.526485 -0.088175
0.580800 0.526485 -0.088175
0.656717 0.531189 -0.088175
0.728210 0.532483 -0.088175
0.795133 0.531189 -0.088175
0.859376 0.528575 -0.088175
0.917130 0.522703 -0.088175
0.967300 0.511986 -0.088175
0.997774 0.493292 -0.088175
1.051746 0.485559 -0.088175
-0.088175 0.608622 -0.088175
-0.052325 0.608622 -0.088175
0.179727 0.608622 -0.088175
0.274483 0.608622 -0.088175
0.358818 0.608622 -0.088175
0.436222 0.608622 -0.088175
0.511928 0.608622 -0.088175
0.585164 0.608622 -0.088175
0.656717 0.608622 -0.088175
0.728210 0.610145 -0.088175
0.795133 0.608622 -0.088175
0.859376 0.605248 -0.088175
0.917130 0.597794 -0.088175
0.967300 0.587045 -0.088175
0.997774 0.565425 -0.088175
1.051746 0.556628 -0.088175
-0.088175 0.687706 -0.088175
-0.052005 0.687706 -0.088175
0.180845 0.687706 -0.088175
0.274483 0.687706 -0.088175
0.357974 0.687706 -0.088175
0.437533 0.687706 -0.088175
0.513022 0.687706 -0.088175
0.586403 0.687706 -0.088175
0.658081 0.687706 -0.088175
0.728210 0.687706 -0.088175
0.796472 0.686708 -0.088175
0.859376 0.682760 -0.088175
0.917130 0.674804 -0.088175
0.967300 0.661909 -0.088175
0.997774 0.637481 -0.088175
1.051746 0.627544 -0.088175
-0.088175 0.763927 -0.088175
-0.052234 0.763927 -0.088175
0.180845 0.763927 -0.088175
0.274483 0.763927 -0.088175
0.358112 0.763927 -0.088175
0.436598 0.763927 -0.088175
0.512237 0.763927 -0.088175
0.585521 0.763927 -0.088175
0.657080 0.763927 -0.088175
0.727190 0.763927 -0.088175
0.796377 0.763927 -0.088175
0.859259 0.759003 -0.088175
0.917130 0.750713 -0.088175
0.967300 0.736746 -0.088175
0.997774 0.709416 -0.088175
1.051746 0.698405 -0.088175
-0.088175 0.836637 -0.088175
-0.052961 0.836637 -0.088175
0.179727 0.836637 -0.088175
0.272406 0.836637 -0.088175
0.356482 0.836637 -0.088175
0.434569 0.836637 -0.088175
0.509762 0.836637 -0.088175
0.582671 0.836637 -0.088175
0.653946 0.836637 -0.088175
0.723640 0.836637 -0.088175
0.792438 0.836637 -0.088175
0.860096 0.836637 -0.088175
0.917130 0.826737 -0.088175
0.967300 0.811659 -0.088175
0.997774 0.781501 -0.088175
1.051746 0.769386 -0.088175
-0.088175 0.903657 -0.088175
-0.054297 0.903657 -0.088175
0.177463 0.903657 -0.088175
0.270327 0.903657 -0.088175
0.353404 0.903657 -0.088175
0.430767 0.903657 -0.088175
0.504927 0.903657 -0.088175
0.577245 0.903657 -0.088175
0.647834 0.903657 -0.088175
0.717090 0.903657 -0.088175
0.784862 0.903657 -0.088175
0.851900 0.903657 -0.088175
0.917936 0.903574 -0.088175
0.967300 0.886447 -0.088175
0.997774 0.853397 -0.088175
1.051746 0.840162 -0.088175
-0.088175 0.960210 -0.088175
-0.056569 0.960210 -0.088175
0.172991 0.960210 -0.088175
0.265103 0.960210 -0.088175
0.346071 0.960210 -0.088175
0.423216 0.960210 -0.088175
0.496224 0.960210 -0.088175
0.567284 0.960210 -0.088175
0.636730 0.960210 -0.088175
0.704734 0.960210 -0.088175
0.772301 0.960210 -0.088175
0.837372 0.960210 -0.088175
0.901788 0.959955 -0.088175
0.967300 0.961296 -0.088175
0.997774 0.925512 -0.088175
1.051746 0.911157 -0.088175
-0.088175 0.997408 -0.088175
-0.060165 0.997408 -0.088175
0.165048 0.997408 -0.088175
0.255639 0.997408 -0.088175
0.335566 0.997408 -0.088175
0.409489 0.997408 -0.088175
0.480644 0.997408 -0.088175
0.549667 0.997408 -0.088175
0.617005 0.997408 -0.088175
0.682973 0.997408 -0.088175
0.747074 0.997408 -0.088175
0.811919 0.997408 -0.088175
0.874555 0.997408 -0.088175
0.937056 0.997752 -0.088175
0.997774 0.997408 -0.088175
1.051746 0.981924 -0.088175
-0.088175 1.051746 -0.088175
-0.061513 1.051746 -0.088175
0.161638 1.051746 -0.088175
0.252466 1.051746 -0.088175
0.330749 1.051746 -0.088175
0.403726 1.051746 -0.088175
0.474236 1.051746 -0.088175
0.542311 1.051746 -0.088175
0.608831 1.051746 -0.088175
0.673952 1.051746 -0.088175
0.737474 1.051746 -0.088175
0.800587 1.051746 -0.088175
0.862863 1.051746 -0.088175
0.924403 1.051746 -0.088175
0.984700 1.051746 -0.088175
1.051746 1.051746 -0.088175
-0.088175 -0.088175 -0.061513
-0.061513 -0.088175 -0.061513
0.146701 -0.088175 -0.066955
0.243991 -0.088175 -0.063946
0.334761 -0.088175 -0.060410
0.419055 -0.088175 -0.057699
0.500663 -0.088175 -0.055445
0.580800 -0.088175 -0.053435
0.656717 -0.088175 -0.052325
0.728210 -0.088175 -0.052005
0.795133 -0.088175 -0.052310
0.859376 -0.088175 -0.053039
0.917130 -0.088175 -0.054352
0.967300 -0.088175 -0.056528
0.997774 -0.088175 -0.060165
1.051746 -0.088175 -0.061513
-0.088175 -0.061513 -0.061513
-0.061513 -0.061513 -0.061513
0.146701 -0.061513 -0.061513
0.243991 -0.061513 -0.061513
0.334761 -0.061513 -0.061513
0.419055 -0.061513 -0.061513
0.500663 -0.061513 -0.061513
0.580800 -0.061513 -0.061513
0.656717 -0.061513 -0.061513
0.728210 -0.061513 -0.061513
0.795133 -0.061513 -0.061513
0.859376 -0.061513 -0.061513
0.917130 -0.061513 -0.061513
0.967300 -0.061513 -0.061513
0.997774 -0.061513 -0.061513
1.051746 -0.061513 -0.061513
-0.088175 0.105007 -0.066617
-0.061513 0.105007 -0.061513
0.147857 0.105007 -0.061513
0.243991 0.112753 -0.061513
0.334761 0.118485 -0.061513
0.419055 0.123920 -0.061513
0.500663 0.126245 -0.061513
0.580800 0.128757 -0.061513
0.656717 0.130057 -0.061513
0.728210 0.130419 -0.061513
0.795133 0.130057 -0.061513
0.859376 0.129448 -0.061513
0.917130 0.127038 -0.061513
0.967300 0.124827 -0.061513
0.997774 0.119289 -0.061513
1.051746 0.117079 -0.061513
-0.088175 0.190930 -0.063638
-0.061513 0.190930 -0.061513
0.157061 0.190930 -0.061513
0.245053 0.190930 -0.061513
0.334761 0.198841 -0.061513
0.419055 0.206501 -0.061513
0.500663 0.210507 -0.061513
0.580800 0.214278 -0.061513
0.656717 0.216232 -0.061513
0.728210 0.216758 -0.061513
0.795133 0.216232 -0.061513
0.859376 0.214824 -0.061513
0.917130 0.212810 -0.061513
0.967300 0.207592 -0.061513
0.997774 0.200170 -0.061513
1.051746 0.196896 -0.061513
-0.088175 0.274114 -0.060518
-0.061513 0.274114 -0.061513
0.163923 0.274114 -0.061513
0.254580 0.274114 -0.061513
0.334761 0.274340 -0.061513
0.419055 0.283269 -0.061513
0.500663 0.288974 -0.061513
0.580800 0.294018 -0.061513
0.656717 0.296616 -0.061513
0.728210 0.297348 -0.061513
0.795133 0.296616 -0.061513
0.859376 0.294425 -0.061513
0.917130 0.291711 -0.061513
0.967300 0.286378 -0.061513
0.997774 0.275129 -0.061513
1.051746 0.270765 -0.061513
-0.088175 0.357617 -0.057799
-0.061513 0.357617 -0.061513
0.168455 0.357617 -0.061513
0.261949 0.357617 -0.061513
0.342781 0.356896 -0.061513
0.419055 0.358363 -0.061513
0.500663 0.365739 -0.061513
0.580800 0.372030 -0.061513
0.656717 0.375314 -0.061513
0.728210 0.376228 -0.061513
0.795133 0.375314 -0.061513
0.859376 0.373268 -0.061513
0.917130 0.368886 -0.061513
0.967300 0.362475 -0.061513
0.997774 0.348379 -0.061513
1.051746 0.342948 -0.061513
-0.088175 0.441813 -0.055445
-0.061513 0.441813 -0.061513
0.172991 0.441813 -0.061513
0.267190 0.441813 -0.061513
0.349787 0.441813 -0.061513
0.425815 0.441591 -0.061513
0.500663 0.441813 -0.061513
0.580800 0.449431 -0.061513
0.656717 0.453342 -0.061513
0.728210 0.454396 -0.061513
0.795133 0.453342 -0.061513
0.859376 0.450476 -0.061513
0.917130 0.445446 -0.061513
0.967300 0.437902 -0.061513
0.997774 0.420985 -0.061513
1.051746 0.414388 -0.061513
-0.088175 0.526485 -0.053435
-0.061513 0.526485 -0.061513
0.175231 0.526485 -0.061513
0.270327 0.526485 -0.061513
0.354578 0.526485 -0.061513
0.432572 0.526485 -0.061513
0.507965 0.526485 -0.061513
0.580800 0.526485 -0.061513
0.656717 0.531081 -0.061513
0.728210 0.532290 -0.061513
0.795133 0.530102 -0.061513
0.859376 0.527400 -0.061513
0.917130 0.521654 -0.061513
0.967300 0.511986 -0.061513
0.997774 0.493237 -0.061513
1.051746 0.485559 -0.061513
-0.088175 0.608622 -0.052325
-0.061513 0.608622 -0.061513
0.177463 0.608622 -0.061513
0.272406 0.608622 -0.061513
0.357522 0.608622 -0.061513
0.435156 0.608622 -0.061513
0.511701 0.608622 -0.061513
0.585078 0.608622 -0.061513
0.656717 0.608622 -0.061513
0.728210 0.610071 -0.061513
0.795133 0.608622 -0.061513
0.859376 0.605172 -0.061513
0.917130 0.597752 -0.061513
0.967300 0.586025 -0.061513
0.997774 0.565385 -0.061513
1.051746 0.556628 -0.061513
-0.088175 0.687706 -0.052005
-0.061513 0.687706 -0.061513
0.177463 0.687706 -0.061513
0.273450 0.687706 -0.061513
0.358603 0.687706 -0.061513
0.436349 0.687706 -0.061513
0.512707 0.687706 -0.061513
0.586207 0.687706 -0.061513
0.658018 0.687706 -0.061513
0.728210 0.687706 -0.061513
0.796394 0.686708 -0.061513
0.859376 0.681800 -0.061513
0.917130 0.674730 -0.061513
0.967300 0.661909 -0.061513
0.997774 0.637432 -0.061513
1.051746 0.627544 -0.061513
-0.088175 0.763927 -0.052234
-0.061513 0.763927 -0.061513
0.177463 0.763927 -0.061513
0.273450 0.763927 -0.061513
0.357733 0.763927 -0.061513
0.436367 0.763927 -0.061513
0.511871 0.763927 -0.061513
0.585311 0.763927 -0.061513
0.657001 0.763927 -0.061513
0.727164 0.763927 -0.061513
0.796246 0.763927 -0.061513
0.859178 0.759003 -0.061513
0.917130 0.750667 -0.061513
0.967300 0.736746 -0.061513
0.997774 0.709421 -0.061513
1.051746 0.698405 -0.061513
-0.088175 0.836637 -0.052961
-0.061513 0.836637 -0.061513
0.176358 0.836637 -0.061513
0.271358 0.836637 -0.061513
0.355136 0.836637 -0.061513
0.433339 0.836637 -0.061513
0.509391 0.836637 -0.061513
0.582439 0.836637 -0.061513
0.653783 0.836637 -0.061513
0.723603 0.836637 -0.061513
0.792254 0.836637 -0.061513
0.860010 0.836637 -0.061513
0.917130 0.826712 -0.061513
0.967300 0.811659 -0.061513
0.997774 0.781477 -0.061513
1.051746 0.769386 -0.061513
-0.088175 0.903657 -0.054297
-0.061513 0.903657 -0.061513
0.174106 0.903657 -0.061513
0.269283 0.903657 -0.061513
0.352032 0.903657 -0.061513
0.429558 0.903657 -0.061513
0.504637 0.903657 -0.061513
0.577015 0.903657 -0.061513
0.647662 0.903657 -0.061513
0.716855 0.903657 -0.061513
0.784670 0.903657 -0.061513
0.851720 0.903657 -0.061513
0.917936 0.903554 -0.061513
0.967300 0.886447 -0.061513
0.997774 0.853380 -0.061513
1.051746 0.840161 -0.061513
-0.088175 0.960210 -0.056569
-0.061513 0.960209 -0.061513
0.170725 0.960210 -0.061513
0.264036 0.960209 -0.061513
0.346822 0.960209 -0.061513
0.422057 0.960209 -0.061513
0.495961 0.960209 -0.061513
0.567117 0.960209 -0.061513
0.636593 0.960209 -0.061513
0.704621 0.960209 -0.061513
0.771320 0.960209 -0.061513
0.837252 0.960209 -0.061513
0.901788 0.959945 -0.061513
0.967300 0.961296 -0.061513
0.997774 0.925503 -0.061513
1.051746 0.911157 -0.061513
-0.088175 0.997408 -0.060165
-0.061513 0.997408 -0.061513
0.165048 0.997408 -0.061513
0.255639 0.997408 -0.061513
0.335476 0.997408 -0.061513
0.409460 0.997408 -0.061513
0.480582 0.997408 -0.061513
0.549606 0.997408 -0.061513
0.616911 0.997408 -0.061513
0.682943 0.997408 -0.061513
0.747007 0.997408 -0.061513
0.811886 0.997408 -0.061513
0.874555 0.997408 -0.061513
0.937056 0.997752 -0.061513
0.997774 0.997408 -0.061513
1.051746 0.981924 -0.061513
-0.088175 1.051746 -0.061513
-0.061513 1.051746 -0.061513
0.161638 1.051746 -0.061513
0.252466 1.051746 -0.061513
0.330749 1.051746 -0.061513
0.403726 1.051746 -0.061513
0.474236 1.051746 -0.061513
0.542311 1.051746 -0.061513
0.608831 1.051746 -0.061513
0.673952 1.051746 -0.061513
0.737474 1.051746 -0.061513
0.800587 1.051746 -0.061513
0.862863 1.051746 -0.061513
0.924403 1.051746 -0.061513
0.984700 1.051746 -0.061513
1.051746 1.051746 -0.061513
-0.088175 -0.088175 0.048660
-0.066617 -0.088175 0.048660
0.147857 -0.088175 0.048660
0.243991 -0.088175 0.052914
0.334761 -0.088175 0.057806
0.419055 -0.088175 0.061067
0.500663 -0.088175 0.063542
0.580800 -0.088175 0.065574
0.656717 -0.088175 0.066635
0.728210 -0.088175 0.066936
0.795133 -0.088175 0.067287
0.859376 -0.088175 0.065634
0.917130 -0.088175 0.064458
0.967300 -0.088175 0.062645
0.997774 -0.088175 0.058069
1.051746 -0.088175 0.056306
-0.088175 -0.066617 0.048660
-0.061513 -0.061513 0.048660
0.147857 -0.061513 0.048660
0.243991 -0.061513 0.053532
0.334761 -0.061513 0.057219
0.419055 -0.061513 0.060761
0.500663 -0.061513 0.062295
0.580800 -0.061513 0.063969
0.656717 -0.061513 0.064832
0.728210 -0.061513 0.065072
0.795133 -0.061513 0.064832
0.859376 -0.061513 0.064424
0.917130 -0.061513 0.062822
0.967300 -0.061513 0.061363
0.997774 -0.061513 0.057736
1.051746 -0.061513 0.056306
-0.088175 0.105007 0.048660
-0.061513 0.105007 0.048660
0.146701 0.104033 0.048057
0.243991 0.105007 0.048660
0.334761 0.105007 0.048660
0.419055 0.105007 0.048660
0.500663 0.105007 0.048660
0.580800 0.105007 0.048660
0.656717 0.105007 0.048660
0.728210 0.105007 0.048660
0.795133 0.105007 0.048660
0.859376 0.105007 0.048660
0.917130 0.105007 0.048660
0.967300 0.105007 0.048660
0.997775 0.105007 0.048660
1.051746 0.105007 0.048660
-0.088175 0.190930 0.053328
-0.061513 0.190930 0.053719
0.146701 0.190930 0.047859
0.245053 0.190930 0.048835
0.334761 0.195350 0.048660
0.419055 0.199707 0.048660
0.500663 0.202171 0.048660
0.580800 0.204601 0.048660
0.656717 0.205749 0.048660
0.728210 0.205975 0.048660
0.795133 0.204756 0.048660
0.859376 0.204022 0.048660
0.917130 0.202460 0.048660
0.967300 0.199157 0.048660
0.997775 0.193709 0.048660
1.051746 0.191369 0.048660
-0.088175 0.274114 0.057616
-0.061513 0.274114 0.057409
0.146701 0.274114 0.048391
0.250351 0.274114 0.049397
0.334761 0.274169 0.048660
0.419055 0.279991 0.048660
0.500663 0.284922 0.048660
0.580800 0.288772 0.048660
0.656717 0.290671 0.048660
0.728210 0.291016 0.048660
0.795133 0.289704 0.048660
0.859376 0.289062 0.048660
0.917130 0.285755 0.048660
0.967300 0.280004 0.048660
0.997775 0.271113 0.048660
1.051746 0.267344 0.048660
-0.088175 0.357617 0.060929
-0.061513 0.357617 0.060154
0.146701 0.357617 0.047930
0.254580 0.357617 0.048999
0.340780 0.357184 0.048660
0.419055 0.358476 0.048660
0.500663 0.364038 0.048660
0.580800 0.369223 0.048660
0.656717 0.371719 0.048660
0.728210 0.372226 0.048660
0.795133 0.370801 0.048660
0.859376 0.369299 0.048660
0.917130 0.365156 0.048660
0.967300 0.358081 0.048660
0.997775 0.345620 0.048660
1.051746 0.340532 0.048660
-0.088175 0.441813 0.063542
-0.061513 0.441813 0.062295
0.146701 0.441813 0.047976
0.257741 0.441813 0.048615
0.345802 0.441813 0.048660
0.423892 0.441367 0.048660
0.500663 0.441813 0.048660
0.580800 0.448222 0.048660
0.656717 0.451321 0.048660
0.728210 0.451883 0.048660
0.795133 0.450344 0.048660
0.859376 0.446985 0.048660
0.917130 0.442429 0.048660
0.967300 0.434175 0.048660
0.997775 0.418959 0.048660
1.051746 0.412639 0.048660
-0.088175 0.526485 0.065574
-0.061513 0.526485 0.063969
0.146701 0.526485 0.048061
0.260893 0.526485 0.049580
0.349347 0.526485 0.048660
0.429686 0.526485 0.048660
0.506772 0.526485 0.048660
0.580800 0.526485 0.048660
0.656717 0.530124 0.048660
0.728210 0.530808 0.048660
0.795133 0.529181 0.048660
0.859376 0.525888 0.048660
0.917130 0.520149 0.048660
0.967300 0.509699 0.048660
0.997775 0.491735 0.048660
1.051746 0.484224 0.048660
-0.088175 0.608622 0.066635
-0.061513 0.608622 0.064832
0.146701 0.608622 0.048434
0.261949 0.608622 0.048576
0.351525 0.608622 0.048660
0.432343 0.608622 0.048660
0.509763 0.608622 0.048660
0.584226 0.608622 0.048660
0.656717 0.608622 0.048660
0.728210 0.609417 0.048660
0.795133 0.606686 0.048660
0.859376 0.604493 0.048660
0.917130 0.597608 0.048660
0.967300 0.585013 0.048660
0.997775 0.564247 0.048660
1.051746 0.555618 0.048660
-0.088175 0.687706 0.066936
-0.061513 0.687706 0.065072
0.146701 0.687706 0.048112
0.261949 0.687706 0.048794
0.351070 0.687706 0.048660
0.432972 0.687706 0.048660
0.510312 0.687706 0.048660
0.584826 0.687706 0.048660
0.657408 0.687706 0.048660
0.728210 0.687706 0.048660
0.796719 0.685753 0.048660
0.859376 0.681800 0.048660
0.917130 0.673958 0.048660
0.967300 0.661104 0.048660
0.997775 0.636610 0.048660
1.051746 0.626799 0.048660
-0.088175 0.763927 0.066720
-0.061513 0.763927 0.064878
0.146701 0.763927 0.047918
0.260893 0.763927 0.048617
0.350891 0.763927 0.048660
0.431631 0.763927 0.048660
0.509174 0.763927 0.048660
0.583538 0.763927 0.048660
0.655969 0.763927 0.048660
0.726742 0.763927 0.048660
0.796192 0.763927 0.048660
0.859584 0.757973 0.048660
0.917130 0.750017 0.048660
0.967300 0.736186 0.048660
0.997775 0.708727 0.048660
1.051746 0.697887 0.048660
-0.088175 0.836637 0.066037
-0.061513 0.836637 0.064304
0.146701 0.836637 0.047882
0.260893 0.836637 0.048684
0.349119 0.836637 0.048660
0.429420 0.836637 0.048660
0.506560 0.836637 0.048660
0.580542 0.836637 0.048660
0.652480 0.836637 0.048660
0.722911 0.836637 0.048660
0.791955 0.836637 0.048660
0.860146 0.836637 0.048660
0.917130 0.827241 0.048660
0.967300 0.810177 0.048660
0.997775 0.781007 0.048660
1.051746 0.768914 0.048660
-0.088175 0.903657 0.064715
-0.061513 0.903657 0.063205
0.146701 0.903657 0.047865
0.258791 0.903657 0.049472
0.346055 0.903657 0.048660
0.425553 0.903657 0.048660
0.501840 0.903657 0.048660
0.575038 0.903657 0.048660
0.646326 0.903657 0.048660
0.716033 0.903657 0.048660
0.784212 0.903657 0.048660
0.851708 0.903657 0.048660
0.917936 0.904319 0.048660
0.967300 0.885148 0.048660
0.997775 0.853136 0.048660
1.051746 0.839837 0.048660
-0.088175 0.960210 0.062323
-0.061513 0.960209 0.061223
0.146701 0.960210 0.048038
0.254580 0.960209 0.048810
0.340090 0.960210 0.048660
0.419170 0.960210 0.048660
0.493423 0.960210 0.048660
0.565289 0.960210 0.048660
0.635284 0.960210 0.048660
0.703777 0.960210 0.048660
0.770994 0.960210 0.048660
0.837216 0.960210 0.048660
0.901788 0.959790 0.048660
0.967300 0.961195 0.048660
0.997775 0.925355 0.048660
1.051746 0.911012 0.048660
-0.088175 0.997408 0.058069
-0.061513 0.997408 0.057736
0.146701 0.997408 0.048226
0.248235 0.997408 0.048505
0.331375 0.997408 0.048660
0.406992 0.997408 0.048660
0.478605 0.997408 0.048660
0.548172 0.997408 0.048660
0.615893 0.997408 0.048660
0.682163 0.997408 0.048660
0.747728 0.997408 0.048660
0.811144 0.997408 0.048660
0.873734 0.997408 0.048660
0.937056 0.997555 0.048660
0.997775 0.997408 0.048660
1.051746 0.981832 0.048660
-0.088175 1.051746 0.056306
-0.061513 1.051746 0.056306
0.146701 1.051746 0.048340
0.246118 1.051746 0.049544
0.326885 1.051746 0.048660
0.401431 1.051746 0.048660
0.472497 1.051746 0.048660
0.541082 1.051746 0.048660
0.607873 1.051746 0.048660
0.673265 1.051746 0.048660
0.736506 1.051746 0.048660
0.800786 1.051746 0.048660
0.862713 1.051746 0.048660
0.924403 1.051746 0.048660
0.984531 1.051746 0.048660
1.051746 1.051746 0.048660
-0.088175 -0.088175 0.108502
-0.063638 -0.088175 0.108502
0.157061 -0.088175 0.108502
0.245053 -0.088175 0.108502
0.334761 -0.088175 0.115964
0.419055 -0.088175 0.119883
0.500663 -0.088175 0.124336
0.580800 -0.088175 0.127550
0.656717 -0.088175 0.129224
0.728210 -0.088175 0.129694
0.795133 -0.088175 0.129224
0.859376 -0.088175 0.128155
0.917130 -0.088175 0.126458
0.967300 -0.088175 0.122158
0.997774 -0.088175 0.115785
1.051746 -0.088175 0.113070
-0.088175 -0.063638 0.108502
-0.061513 -0.061513 0.108502
0.157061 -0.061513 0.108502
0.245053 -0.061513 0.108502
0.334761 -0.061513 0.114570
0.419055 -0.061513 0.120538
0.500663 -0.061513 0.123678
0.580800 -0.061513 0.126670
0.656717 -0.061513 0.128220
0.728210 -0.061513 0.128631
0.795133 -0.061513 0.128220
0.859376 -0.061513 0.127087
0.917130 -0.061513 0.125497
0.967300 -0.061513 0.121390
0.997774 -0.061513 0.115598
1.051746 -0.061513 0.113070
-0.088175 0.112428 0.108502
-0.061513 0.113040 0.108502
0.146701 0.103713 0.108502
0.245053 0.105290 0.108502
0.334761 0.105007 0.111894
0.419055 0.105007 0.115254
0.500663 0.105007 0.117150
0.580800 0.105007 0.119035
0.656717 0.105007 0.119942
0.728210 0.105007 0.120114
0.795133 0.105007 0.119176
0.859376 0.105007 0.118597
0.917130 0.105007 0.117381
0.967300 0.105007 0.114814
0.997775 0.105007 0.110622
1.051746 0.105007 0.108842
-0.088175 0.190930 0.108502
-0.061513 0.190930 0.108502
0.146701 0.190930 0.108502
0.243991 0.189950 0.107763
0.334761 0.190930 0.108502
0.419055 0.190930 0.108502
0.500663 0.190930 0.108502
0.580800 0.190930 0.108502
0.656717 0.190930 0.108502
0.728210 0.190930 0.108502
0.795133 0.190930 0.108502
0.859376 0.190930 0.108502
0.917130 0.190930 0.108502
0.967300 0.190930 0.108502
0.997774 0.190930 0.108502
1.051746 0.190930 0.108502
-0.088175 0.274114 0.115087
-0.061513 0.274114 0.115014
0.146701 0.274114 0.112093
0.243991 0.274114 0.107550
0.334761 0.273830 0.108502
0.419055 0.276927 0.108502
0.500663 0.279687 0.108502
0.580800 0.281810 0.108502
0.656717 0.282680 0.108502
0.728210 0.282677 0.108502
0.795133 0.281694 0.108502
0.859376 0.280727 0.108502
0.917130 0.279187 0.108502
0.967300 0.274860 0.108502
0.997774 0.269446 0.108502
1.051746 0.267040 0.108502
-0.088175 0.357617 0.120259
-0.061513 0.357617 0.119884
0.146701 0.357617 0.114954
0.243991 0.357617 0.107133
0.337779 0.357086 0.108502
0.419055 0.358648 0.108502
0.500663 0.361979 0.108502
0.580800 0.365545 0.108502
0.656717 0.367005 0.108502
0.728210 0.367001 0.108502
0.795133 0.366072 0.108502
0.859376 0.364065 0.108502
