Taquilla/Resources/02_Canon LUTs_Gritty/02_Canon LUTs_Gritty.cube
LUT_3D_SIZE 6
-0.088175 -0.088175 -0.088175
0.243991 -0.088175 -0.088175
0.500663 -0.088175 -0.088175
0.728210 -0.088175 -0.088175
0.917130 -0.088175 -0.088175
1.051746 -0.088175 -0.088175
-0.088175 0.190930 -0.088175
0.245053 0.190930 -0.088175
0.500663 0.211345 -0.088175
0.728210 0.218093 -0.088175
0.917130 0.214018 -0.088175
1.051746 0.196896 -0.088175
-0.088175 0.441813 -0.088175
0.267190 0.441813 -0.088175
0.500663 0.441813 -0.088175
0.728210 0.454717 -0.088175
0.917130 0.446483 -0.088175
1.051746 0.414388 -0.088175
-0.088175 0.687706 -0.088175
0.274483 0.687706 -0.088175
0.513022 0.687706 -0.088175
0.728210 0.687706 -0.088175
0.917130 0.674804 -0.088175
1.051746 0.627544 -0.088175
-0.088175 0.903657 -0.088175
0.270327 0.903657 -0.088175
0.504927 0.903657 -0.088175
0.717090 0.903657 -0.088175
0.917936 0.903574 -0.088175
1.051746 0.840162 -0.088175
-0.088175 1.051746 -0.088175
0.252466 1.051746 -0.088175
0.474236 1.051746 -0.088175
0.673952 1.051746 -0.088175
0.862863 1.051746 -0.088175
1.051746 1.051746 -0.088175
-0.088175 -0.088175 0.108502
0.245053 -0.088175 0.108502
0.500663 -0.088175 0.124336
0.728210 -0.088175 0.129694
0.917130 -0.088175 0.126458
1.051746 -0.088175 0.113070
-0.088175 0.190930 0.108502
0.243991 0.189950 0.107763
0.500663 0.190930 0.108502
0.728210 0.190930 0.108502
0.917130 0.190930 0.108502
1.051746 0.190930 0.108502
-0.088175 0.441813 0.124336
0.243991 0.441813 0.107115
0.500663 0.441813 0.108502
0.728210 0.448630 0.108502
0.917130 0.439652 0.108502
1.051746 0.412511 0.108502
-0.088175 0.687706 0.129694
0.243991 0.687706 0.107434
0.507170 0.687706 0.108502
0.728210 0.687706 0.108502
0.917130 0.672568 0.108502
1.051746 0.626728 0.108502
-0.088175 0.903657 0.126191
0.243991 0.903657 0.107212
0.498737 0.903657 0.108502
0.714883 0.903657 0.108502
0.917936 0.904123 0.108502
1.051746 0.839842 0.108502
-0.088175 1.051746 0.113070
0.243991 1.051746 0.107116
0.472368 1.051746 0.108502
0.673118 1.051746 0.108502
0.862760 1.051746 0.108502
1.051746 1.051746 0.108502
-0.088175 -0.088175 0.334317
0.267190 -0.088175 0.334317
0.500663 -0.088175 0.334317
0.728210 -0.088175 0.347484
0.917130 -0.088175 0.339051
1.051746 -0.088175 0.306827
-0.088175 0.211345 0.334317
0.243991 0.189110 0.334317
0.500663 0.190930 0.334317
0.728210 0.190930 0.341263
0.917130 0.190930 0.332132
1.051746 0.190930 0.304922
-0.088175 0.441813 0.334317
0.243991 0.441813 0.334317
0.500663 0.441813 0.334317
0.728211 0.441813 0.334317
0.917130 0.441813 0.334317
1.051746 0.441813 0.334317
-0.088175 0.687706 0.347484
0.243991 0.687706 0.341132
0.500663 0.687706 0.334317
0.728211 0.687706 0.334317
0.917130 0.673974 0.334317
1.051746 0.640206 0.334317
-0.088175 0.903657 0.338865
0.243991 0.903657 0.331570
0.500663 0.903657 0.334317
0.715545 0.903657 0.334317
0.917936 0.904471 0.334317
1.051746 0.845167 0.334317
-0.088175 1.051746 0.306827
0.243991 1.051746 0.304884
0.500663 1.051746 0.334317
0.685458 1.051746 0.334317
0.866742 1.051746 0.334317
1.051746 1.051746 0.334317
-0.088175 -0.088175 0.605205
0.274483 -0.088175 0.605205
0.513022 -0.088175 0.605205
0.728210 -0.088175 0.605205
0.917130 -0.088175 0.590048
1.051746 -0.088175 0.535308
-0.088175 0.218093 0.605205
0.243991 0.189514 0.605205
0.507170 0.190930 0.605205
0.728210 0.190930 0.605205
0.917130 0.190930 0.587395
1.051746 0.190930 0.534293
-0.088175 0.454717 0.605205
0.243991 0.448525 0.605205
0.500663 0.441813 0.605205
0.728211 0.441813 0.605205
0.917130 0.441813 0.589090
1.051746 0.441813 0.549848
-0.088175 0.687706 0.605205
0.243991 0.687706 0.605205
0.500663 0.687706 0.605205
0.728210 0.687706 0.605205
0.917130 0.687706 0.605205
1.051746 0.687706 0.605205
-0.088175 0.903657 0.590536
0.243991 0.903657 0.587979
0.500663 0.903657 0.588616
0.728210 0.903657 0.605205
0.917130 0.903416 0.605205
1.051746 0.864869 0.605205
-0.088175 1.051746 0.535308
0.243991 1.051746 0.534168
0.500663 1.051746 0.549848
0.728210 1.051746 0.605205
0.883797 1.051746 0.605205
1.051746 1.051746 0.605205
-0.088175 -0.088175 0.872970
0.270327 -0.088175 0.872970
0.504927 -0.088175 0.872970
0.717090 -0.088175 0.872970
0.917936 -0.088175 0.872865
1.051746 -0.088175 0.791669
-0.088175 0.213673 0.872970
0.243991 0.189229 0.872970
0.498737 0.190930 0.872970
0.714883 0.190930 0.872970
0.917936 0.190930 0.873648
1.051746 0.190930 0.791229
-0.088175 0.446296 0.872970
0.243991 0.439113 0.872970
0.500663 0.441813 0.872970
0.715545 0.441813 0.872970
0.917936 0.441813 0.873955
1.051746 0.441813 0.798075
-0.088175 0.675249 0.872970
0.243991 0.673029 0.872970
0.500663 0.673631 0.872970
0.728210 0.687706 0.872970
0.917130 0.687706 0.872625
1.051746 0.687706 0.823100
-0.088175 0.903657 0.872970
0.243991 0.903657 0.872970
0.500663 0.903657 0.872970
0.728210 0.903657 0.872970
0.917130 0.902654 0.871635
1.051746 0.903657 0.872970
-0.088175 1.051746 0.791669
0.243991 1.051746 0.791669
0.500663 1.051746 0.798075
0.728210 1.051746 0.823100
0.918489 1.051746 0.872970
1.051746 1.051746 0.872970
-0.088175 -0.088175 1.051746
0.252466 -0.088175 1.051746
0.474236 -0.088175 1.051746
0.673952 -0.088175 1.051746
0.862863 -0.088175 1.051746
1.051746 -0.088175 1.051746
-0.088175 0.196896 1.051746
0.243991 0.189111 1.051746
0.472368 0.190930 1.051746
0.673118 0.190930 1.051746
0.862760 0.190930 1.051746
1.051746 0.190930 1.051746
-0.088175 0.414388 1.051746
0.243991 0.412476 1.051746
0.500663 0.441813 1.051746
0.685458 0.441813 1.051746
0.866742 0.441813 1.051746
1.051746 0.441813 1.051746
-0.088175 0.627544 1.051746
0.243991 0.626552 1.051746
0.500663 0.640206 1.051746
0.728210 0.687706 1.051746
0.883797 0.687706 1.051746
1.051746 0.687706 1.051746
-0.088175 0.840162 1.051746
0.243991 0.840161 1.051746
0.500663 0.845167 1.051746
0.728210 0.864869 1.051746
0.918489 0.903657 1.051746
1.051746 0.903657 1.051746
-0.088175 1.051746 1.051746
0.243991 1.051746 1.051746
0.500663 1.051746 1.051746
0.728210 1.051746 1.051746
0.917130 1.051746 1.051746
1.051746 1.051746 1.051746
