Taquilla/Resources/kodak.CUBE
#Created by: Adobe Photoshop Export Color Lookup Plugin
TITLE "IMG_14BE3AFB20ED-1.jpeg"
#LUT size
LUT_3D_SIZE 8
#data domain
#LUT data points
DOMAIN_MIN 0.000000 0.000000 0.000000
DOMAIN_MAX 0.903226 0.903226 0.903226
0.020905 0.010986 0.010925
0.118195 0.015167 0.010315
0.367676 0.006073 0.001648
0.543091 0.000000 0.000000
0.635315 0.000000 0.000000
0.697601 0.000000 0.000000
0.743225 0.000000 0.000000
0.771881 0.000000 0.000000
0.023560 0.068176 0.015564
0.053375 0.064117 0.014709
0.203339 0.081604 0.010529
0.412079 0.093353 0.000580
0.585449 0.078918 0.000000
0.694031 0.056946 0.000000
0.762207 0.043030 0.000000
0.816498 0.037109 0.000000
0.000000 0.172394 0.013489
0.040588 0.168732 0.011536
0.204254 0.191895 0.004456
0.405396 0.218872 0.000000
0.584991 0.230713 0.000000
0.733429 0.230499 0.000000
0.802948 0.226105 0.000000
0.864716 0.222961 0.000000
0.000000 0.276306 0.003693
0.000061 0.277618 0.001068
0.203583 0.306396 0.000000
0.405457 0.345184 0.000000
0.597931 0.370544 0.000000
0.762299 0.382843 0.000000
0.845428 0.382874 0.000000
0.907928 0.382507 0.000000
0.000000 0.367706 0.000000
0.000000 0.375000 0.000000
0.197357 0.408478 0.000000
0.406036 0.450073 0.000000
0.606903 0.485962 0.000000
0.767334 0.505768 0.000000
0.877686 0.514252 0.000000
0.941895 0.516357 0.000000
0.000000 0.441406 0.000000
0.000000 0.457336 0.000000
0.190063 0.496185 0.000000
0.407776 0.542664 0.000000
0.614258 0.586334 0.000000
0.771820 0.611938 0.000000
0.901917 0.628632 0.000000
0.967194 0.632324 0.000000
0.000000 0.516846 0.000458
0.000000 0.545166 0.000000
0.184418 0.581482 0.000000
0.412415 0.626831 0.000000
0.619629 0.671082 0.000000
0.773895 0.697388 0.000000
0.916534 0.718231 0.000000
0.981781 0.723267 0.000000
0.000000 0.584412 0.027985
0.000000 0.616394 0.003265
0.190765 0.654907 0.000000
0.421906 0.704498 0.000000
0.626434 0.753967 0.000000
0.778687 0.784149 0.000000
0.923981 0.807098 0.000000
0.994476 0.813477 0.000000
0.015961 0.013824 0.083954
0.108734 0.016724 0.082367
0.318726 0.012329 0.072357
0.507233 0.000000 0.054169
0.634399 0.000000 0.036316
0.700531 0.000000 0.025421
0.757172 0.000000 0.019501
0.787476 0.000000 0.017883
0.013855 0.058075 0.054749
0.043213 0.056152 0.054199
0.184296 0.069611 0.052673
0.389069 0.079407 0.044952
0.561310 0.064819 0.030243
0.687439 0.041809 0.018250
0.759216 0.031494 0.013672
0.823242 0.023407 0.010773
0.000000 0.165436 0.067230
0.019440 0.162445 0.065613
0.186432 0.179504 0.060486
0.381439 0.203796 0.048859
0.565521 0.216034 0.028137
0.725281 0.215881 0.012695
0.798737 0.212555 0.006805
0.863708 0.211182 0.003632
0.000000 0.279022 0.076965
0.000000 0.280365 0.073486
0.178192 0.306152 0.062988
0.385010 0.338684 0.043304
0.583130 0.363892 0.017609
0.748199 0.376434 0.000000
0.844299 0.379028 0.000000
0.909271 0.380127 0.000000
0.000000 0.380310 0.087372
0.000000 0.386963 0.080750
0.156281 0.417664 0.064728
0.384644 0.456757 0.038330
0.594482 0.492065 0.010651
0.756989 0.511322 0.000000
0.877686 0.521118 0.000000
0.943604 0.523651 0.000000
0.000000 0.461456 0.104156
0.000000 0.477173 0.094513
0.126526 0.513977 0.073883
0.383362 0.558167 0.043091
0.601257 0.600647 0.011688
0.762024 0.625183 0.000000
0.900482 0.640686 0.000000
0.966736 0.642853 0.000000
0.000000 0.540680 0.130005
0.000000 0.566833 0.118866
0.094910 0.601288 0.099701
0.384705 0.644745 0.066895
0.604950 0.688141 0.033356
0.763184 0.713409 0.005676
0.912415 0.734222 0.000000
0.980164 0.739075 0.000000
0.000000 0.611450 0.164459
0.000000 0.642120 0.154541
0.084961 0.679413 0.138611
0.391479 0.727692 0.109833
0.610229 0.775696 0.058929
0.766754 0.801819 0.034760
0.917267 0.824310 0.002533
0.990936 0.830200 0.000549
0.011444 0.008148 0.221191
0.107910 0.009308 0.220062
0.304413 0.006134 0.223572
0.498840 0.000000 0.216553
0.644073 0.000000 0.205505
0.712524 0.000000 0.192383
0.772644 0.000000 0.182800
0.806763 0.000000 0.176636
0.001129 0.066345 0.182465
0.033966 0.063995 0.180817
0.185181 0.074432 0.184631
0.390625 0.081146 0.187592
0.563568 0.064423 0.184235
0.697723 0.041199 0.179779
0.770050 0.029785 0.178040
0.836884 0.021057 0.178009
0.000000 0.182373 0.201324
0.000000 0.178040 0.198608
0.172211 0.192596 0.199860
0.374786 0.213104 0.200623
0.563019 0.222748 0.195892
0.728790 0.220917 0.188507
0.805084 0.216522 0.185059
0.870422 0.213593 0.183990
0.000000 0.300903 0.217834
0.000000 0.302582 0.214661
0.139374 0.323425 0.214111
0.369537 0.352325 0.211945
0.575348 0.375183 0.205139
0.742493 0.386047 0.195343
0.846680 0.388336 0.188934
0.912781 0.388855 0.186829
0.000000 0.406738 0.233124
0.000000 0.412720 0.229156
0.070465 0.441101 0.227173
0.359863 0.477020 0.222565
0.582367 0.510132 0.212799
0.748505 0.527679 0.200714
0.877289 0.537201 0.190552
0.944611 0.539062 0.187256
0.000000 0.491302 0.249573
0.000000 0.508087 0.245880
0.018951 0.542175 0.242798
0.349915 0.583588 0.236328
0.585144 0.624115 0.224365
0.750641 0.645538 0.210480
0.896851 0.659393 0.196991
0.964691 0.660767 0.192993
0.000000 0.570068 0.270264
0.000000 0.596130 0.267426
0.011841 0.628479 0.263550
0.346069 0.669891 0.256195
0.585907 0.711609 0.243652
0.749786 0.735504 0.229645
0.904144 0.755493 0.214752
0.976105 0.760010 0.209534
0.000000 0.643555 0.295441
0.000000 0.673065 0.294434
0.012115 0.709045 0.290680
0.348938 0.755798 0.282654
0.588806 0.799103 0.269989
0.751465 0.823456 0.256470
0.907074 0.844910 0.241974
0.984528 0.850464 0.236176
0.018707 0.000000 0.324036
0.122284 0.000000 0.335266
0.301117 0.000000 0.349152
0.490326 0.000000 0.349182
0.645172 0.000000 0.340698
0.714844 0.000000 0.330078
0.776855 0.000000 0.321777
0.816315 0.000000 0.315674
0.000000 0.065491 0.303162
0.040100 0.063477 0.303864
0.196442 0.071136 0.315491
0.398956 0.074402 0.326904
0.567627 0.055847 0.329132
0.703979 0.035614 0.329254
0.775848 0.023163 0.328979
0.843445 0.014404 0.330170
0.000000 0.191376 0.330505
0.000000 0.188782 0.329987
0.169250 0.201843 0.338654
0.376801 0.219147 0.348114
0.563446 0.226746 0.350677
0.731110 0.223724 0.349945
0.807983 0.218842 0.348022
0.873352 0.215485 0.347656
0.000000 0.317657 0.351624
0.000000 0.319122 0.351318
0.101013 0.338501 0.358643
0.361450 0.364655 0.366394
0.569794 0.385193 0.368958
0.737488 0.394684 0.367249
0.845673 0.396545 0.364807
0.912262 0.396545 0.363617
0.000000 0.426086 0.366425
0.000000 0.434418 0.366882
0.019043 0.461517 0.373199
0.341339 0.494934 0.379211
0.571747 0.525757 0.380768
0.740204 0.541962 0.377960
0.873596 0.551056 0.374512
0.941772 0.552338 0.372620
0.000000 0.514771 0.378540
0.000000 0.535004 0.381195
0.006012 0.566650 0.385895
0.321320 0.605835 0.390106
0.569885 0.643433 0.390167
0.738953 0.661682 0.386200
0.890137 0.675079 0.381561
0.959106 0.675842 0.379150
0.000000 0.595154 0.392700
0.000000 0.621155 0.396149
0.000000 0.651733 0.399261
0.312042 0.691345 0.401855
0.567993 0.731171 0.400604
0.736420 0.753998 0.396118
0.894470 0.773346 0.390656
0.969086 0.777588 0.387787
0.000000 0.672516 0.410919
0.000000 0.699890 0.413483
0.000000 0.734619 0.415741
0.312195 0.777435 0.416962
0.569336 0.817108 0.414551
0.736725 0.840515 0.409485
0.896027 0.861267 0.403503
0.975952 0.866547 0.400208
0.036774 0.000000 0.392944
0.146942 0.000000 0.411469
0.308929 0.000000 0.429565
0.487152 0.000000 0.437866
0.644867 0.000000 0.438843
0.714508 0.000000 0.433746
0.776978 0.000000 0.430511
0.822357 0.000000 0.428772
0.000000 0.058807 0.400818
0.069580 0.057068 0.409912
0.219269 0.061188 0.428253
0.413605 0.059540 0.445984
0.575806 0.042694 0.453552
0.710175 0.024323 0.457916
0.780823 0.011719 0.459717
0.847504 0.003296 0.462799
0.000000 0.195190 0.442932
0.000000 0.194977 0.449188
0.181946 0.206512 0.465424
0.389343 0.221222 0.481934
0.568726 0.226349 0.490051
0.734131 0.222137 0.492249
0.810181 0.216919 0.490906
0.874969 0.213379 0.490601
0.000000 0.327576 0.473969
0.000000 0.332062 0.480438
0.090240 0.350098 0.494507
0.365448 0.373840 0.507599
0.569977 0.391449 0.515015
0.736511 0.399719 0.516602
0.844513 0.401062 0.515900
0.910889 0.400787 0.514801
0.000000 0.441467 0.494537
0.000000 0.454773 0.501373
0.012299 0.479034 0.512238
0.334106 0.510040 0.523834
0.566376 0.537750 0.531250
0.735443 0.552704 0.532227
0.869568 0.561066 0.531738
0.937927 0.561981 0.530121
0.000000 0.536194 0.507599
0.000000 0.560272 0.516205
0.000000 0.588806 0.525360
0.301666 0.625732 0.535309
0.559418 0.658051 0.541565
0.730713 0.674927 0.541534
0.883118 0.687439 0.540680
0.953003 0.687866 0.538635
0.000000 0.622772 0.522583
0.000000 0.646149 0.529419
0.000000 0.674744 0.536835
0.282471 0.712250 0.544861
0.553650 0.749146 0.550079
0.725616 0.770782 0.549713
0.885590 0.789215 0.548615
0.961456 0.793060 0.546600
0.000000 0.703278 0.538696
0.000000 0.728943 0.544342
0.000000 0.761261 0.550720
0.274048 0.798798 0.557037
0.551636 0.835449 0.560699
0.723541 0.857513 0.559692
0.885315 0.877319 0.558105
0.966644 0.882233 0.555908
0.075531 0.000000 0.462982
0.180115 0.000000 0.484863
0.328308 0.000000 0.503601
0.490906 0.000000 0.513336
0.642303 0.000000 0.516510
0.714783 0.000000 0.513733
0.777313 0.000000 0.512360
0.828125 0.000000 0.513672
0.005920 0.050781 0.477173
0.113495 0.050323 0.493561
0.251221 0.051910 0.512451
0.434113 0.047546 0.530884
0.588409 0.034882 0.539459
0.716736 0.015472 0.544769
0.785492 0.003296 0.546814
0.850708 0.000000 0.550140
0.000000 0.194733 0.522583
0.018005 0.199127 0.535645
0.212585 0.208862 0.552368
0.413086 0.221222 0.570465
0.579651 0.223969 0.578979
0.738739 0.218811 0.584320
0.812714 0.213379 0.584167
0.876312 0.209747 0.584778
0.000000 0.330536 0.557251
0.000000 0.340942 0.570068
0.130646 0.356934 0.585693
0.385101 0.378693 0.602814
0.577576 0.393463 0.613068
0.740723 0.400757 0.618011
0.844543 0.401611 0.618805
0.909943 0.401215 0.618378
0.000000 0.449738 0.580963
0.000000 0.468201 0.594482
0.017090 0.490234 0.608734
0.349030 0.519226 0.624603
0.570465 0.543671 0.635376
0.737213 0.557617 0.639923
0.867554 0.565216 0.641510
0.935242 0.565948 0.640594
0.000000 0.555878 0.600708
0.000000 0.577881 0.612274
0.000000 0.604462 0.624908
0.310333 0.637604 0.638885
0.559479 0.665863 0.648682
0.729645 0.681763 0.652252
0.879517 0.693420 0.653992
0.948578 0.693634 0.652618
0.000000 0.643005 0.616119
0.000000 0.663910 0.625214
0.000000 0.690857 0.635925
0.285065 0.726440 0.648132
0.550629 0.759949 0.657135
0.722565 0.780579 0.660431
0.881226 0.798126 0.662201
0.955902 0.801605 0.661133
0.000000 0.726929 0.631104
0.000000 0.750031 0.638824
0.000000 0.777313 0.647858
0.271057 0.813141 0.658142
0.545868 0.846313 0.665375
0.718536 0.867432 0.667908
0.879456 0.886414 0.669220
0.959839 0.890900 0.668091
0.124664 0.000000 0.510590
0.217438 0.000000 0.531525
0.355255 0.000000 0.553314
0.501312 0.000000 0.567810
0.645905 0.000000 0.578430
0.717987 0.000000 0.581757
0.780304 0.000000 0.586823
0.834442 0.000000 0.592102
0.043427 0.045441 0.550537
0.161346 0.044189 0.570312
0.291199 0.043915 0.592224
0.459961 0.039551 0.612946
0.605804 0.024017 0.623901
0.725677 0.004730 0.630920
0.792206 0.000000 0.634613
0.855682 0.000000 0.637939
0.000000 0.197449 0.602722
0.067841 0.203156 0.620117
0.252808 0.211548 0.638641
0.443512 0.221283 0.658813
0.595734 0.221710 0.667664
0.746735 0.215698 0.674011
0.817230 0.210144 0.674133
0.879456 0.206482 0.674988
0.000000 0.338928 0.643341
0.000000 0.349915 0.658081
0.183258 0.364441 0.674530
0.415619 0.384125 0.693085
0.590942 0.395599 0.703461
0.750244 0.401947 0.709778
0.846649 0.402161 0.710999
0.910736 0.401703 0.710876
0.000000 0.465515 0.669769
0.000000 0.481232 0.683075
0.033264 0.501465 0.698303
0.377991 0.528259 0.715820
0.581268 0.548798 0.727112
0.744537 0.561676 0.733124
0.867645 0.568146 0.735596
0.934204 0.568756 0.735016
0.000000 0.575500 0.689362
0.000000 0.594482 0.700897
0.009827 0.618683 0.714539
0.338409 0.648041 0.729919
0.567657 0.672119 0.740540
0.734894 0.687012 0.745636
0.877930 0.697327 0.748535
0.946106 0.697388 0.747498
0.000000 0.661865 0.703125
0.000000 0.680786 0.712738
0.000000 0.706024 0.724640
0.310760 0.739502 0.738556
0.556183 0.768738 0.748505
0.725891 0.788239 0.753357
0.879974 0.804535 0.756622
0.952454 0.807526 0.755951
0.000000 0.748535 0.717346
0.000000 0.767212 0.725433
0.000000 0.792694 0.735596
0.294800 0.826477 0.747620
0.549103 0.855316 0.755829
0.720123 0.875397 0.759827
0.877258 0.893066 0.762634
0.955322 0.897034 0.761963
0.173828 0.000000 0.556335
0.261505 0.000000 0.575134
0.390808 0.000000 0.595398
0.518127 0.000000 0.608307
0.653656 0.000000 0.618927
0.723297 0.000000 0.624847
0.784790 0.000000 0.631744
0.839905 0.000000 0.638397
0.116333 0.047333 0.604431
0.213104 0.046570 0.621765
0.337494 0.045197 0.642181
0.487030 0.039429 0.660400
0.626465 0.023132 0.672913
0.735352 0.005035 0.681244
0.799469 0.000000 0.686035
0.860870 0.000000 0.691284
0.000000 0.203888 0.657379
0.152435 0.209015 0.673615
0.301941 0.216583 0.692810
0.474365 0.223511 0.712952
0.615997 0.222351 0.724304
0.756134 0.215668 0.733490
0.823090 0.209961 0.736023
0.883636 0.206207 0.738983
0.000000 0.348450 0.703339
0.003387 0.358185 0.718872
0.245392 0.371765 0.737457
0.456848 0.389771 0.759003
0.610107 0.397949 0.770966
0.764465 0.403442 0.780823
0.850739 0.403046 0.784088
0.913116 0.402557 0.786011
0.000000 0.478943 0.737885
0.000000 0.492981 0.752472
0.142334 0.511871 0.770111
0.419678 0.536865 0.790863
0.598541 0.553406 0.804138
0.756989 0.565430 0.813812
0.869904 0.570740 0.818695
0.934753 0.570801 0.819977
0.000000 0.592804 0.763672
0.000000 0.610046 0.776917
0.027496 0.630981 0.792816
0.380920 0.658417 0.811646
0.582367 0.678192 0.824615
0.745117 0.692261 0.833466
0.878357 0.701141 0.839142
0.945129 0.701263 0.840088
0.000000 0.679871 0.781464
0.000000 0.697388 0.792969
0.008270 0.721161 0.807526
0.352295 0.752869 0.825043
0.568085 0.777618 0.837585
0.734009 0.796204 0.845917
0.882294 0.811157 0.850800
0.950500 0.813416 0.850311
0.000000 0.766815 0.798584
0.000000 0.784698 0.808716
0.000183 0.808594 0.821411
0.335114 0.840576 0.836945
0.558136 0.864868 0.846985
0.726196 0.883820 0.852448
0.878601 0.900208 0.856506
0.952118 0.903290 0.856171
