Taquilla/Resources/kodak.CUBE
#Created by: Adobe Photoshop Export Color Lookup Plugin
TITLE "IMG_14BE3AFB20ED-1.jpeg"
#LUT size
LUT_3D_SIZE 32
#data domain
DOMAIN_MIN 0.0 0.0 0.0
DOMAIN_MAX 1.0 1.0 1.0
#LUT data points
0.020905 0.010986 0.010925
0.024689 0.011108 0.010895
0.039276 0.011841 0.010864
0.067078 0.013275 0.010864
0.118195 0.015167 0.010315
0.177216 0.016235 0.009186
0.246185 0.015656 0.007141
0.309875 0.011261 0.004272
0.367676 0.006073 0.001648
0.411682 0.001404 0.000366
0.455383 0.000000 0.000000
0.499023 0.000000 0.000000
0.543091 0.000000 0.000000
0.575745 0.000000 0.000000
0.600403 0.000000 0.000000
0.618042 0.000000 0.000000
0.635315 0.000000 0.000000
0.652191 0.000000 0.000000
0.667603 0.000000 0.000000
0.682739 0.000000 0.000000
0.697601 0.000000 0.000000
0.712158 0.000000 0.000000
0.725311 0.000000 0.000000
0.735291 0.000000 0.000000
0.743225 0.000000 0.000000
0.750397 0.000000 0.000000
0.757324 0.000000 0.000000
0.764465 0.000000 0.000000
0.771881 0.000000 0.000000
0.780609 0.000000 0.000000
0.789246 0.000000 0.000000
0.797852 0.000000 0.000000
0.022034 0.014618 0.011658
0.023010 0.014282 0.011566
0.028625 0.014587 0.011536
0.045441 0.015503 0.011536
0.068787 0.017059 0.011475
0.114563 0.019104 0.010986
0.164612 0.020477 0.009979
0.215607 0.021790 0.008667
0.273041 0.019104 0.006195
0.325470 0.017639 0.004181
0.377869 0.013336 0.001587
0.425201 0.011139 0.000549
0.469055 0.005737 0.000000
0.513733 0.002289 0.000000
0.547852 0.000000 0.000000
0.592804 0.000000 0.000000
0.612701 0.000000 0.000000
0.632172 0.000000 0.000000
0.651184 0.000000 0.000000
0.667847 0.000000 0.000000
0.684662 0.000000 0.000000
0.701294 0.000000 0.000000
0.716736 0.000000 0.000000
0.731293 0.000000 0.000000
0.746063 0.000000 0.000000
0.755890 0.000000 0.000000
0.764374 0.000000 0.000000
0.772430 0.000000 0.000000
0.780304 0.000000 0.000000
0.788849 0.000000 0.000000
0.797607 0.000000 0.000000
0.806305 0.000000 0.000000
0.023407 0.025085 0.012848
0.024414 0.023895 0.012726
0.028503 0.023621 0.012634
0.036346 0.024109 0.012604
0.055298 0.025299 0.012482
0.083801 0.027893 0.012238
0.123596 0.030487 0.011780
0.166870 0.033600 0.010742
0.214050 0.035828 0.009338
0.268066 0.036255 0.007111
0.324677 0.035736 0.004059
0.379303 0.031891 0.001129
0.424042 0.026825 0.000244
0.467804 0.021240 0.000000
0.512848 0.015411 0.000000
0.558319 0.012146 0.000000
0.601257 0.007385 0.000000
0.623383 0.007385 0.000000
0.642700 0.005066 0.000000
0.661682 0.003021 0.000000
0.679871 0.002777 0.000000
0.697357 0.000702 0.000000
0.714203 0.000244 0.000000
0.730743 0.000000 0.000000
0.747101 0.000000 0.000000
0.763214 0.000000 0.000000
0.773621 0.000000 0.000000
0.782288 0.000000 0.000000
0.790924 0.000000 0.000000
0.799347 0.000000 0.000000
0.807800 0.000000 0.000000
0.816620 0.000000 0.000000
0.025055 0.043945 0.014587
0.026154 0.041656 0.014435
0.030273 0.040527 0.014282
0.038147 0.040314 0.014160
0.054718 0.041260 0.013977
0.080292 0.043518 0.013641
0.119324 0.047974 0.013031
0.161011 0.052216 0.011932
0.205444 0.056183 0.010468
0.254608 0.059845 0.008270
0.310455 0.061493 0.005127
0.366455 0.061798 0.001923
0.413391 0.059723 0.000488
0.457825 0.055573 0.000000
0.501312 0.050507 0.000000
0.545441 0.042389 0.000000
0.588440 0.033844 0.000000
0.628815 0.023834 0.000000
0.648224 0.018921 0.000000
0.667267 0.014282 0.000000
0.686035 0.009216 0.000000
0.703888 0.005035 0.000000
0.721252 0.001801 0.000000
0.738007 0.000244 0.000000
0.754395 0.000000 0.000000
0.770447 0.000000 0.000000
0.785461 0.000000 0.000000
0.795654 0.000000 0.000000
0.804138 0.000000 0.000000
0.812469 0.000000 0.000000
0.820801 0.000000 0.000000
0.829132 0.000000 0.000000
0.023560 0.068176 0.015564
0.025269 0.065674 0.015289
0.029877 0.064240 0.015137
0.038208 0.063934 0.014984
0.053375 0.064117 0.014709
0.079102 0.066681 0.014252
0.119202 0.071686 0.013458
0.160034 0.076843 0.012115
0.203339 0.081604 0.010529
0.250977 0.086304 0.008148
0.303497 0.090424 0.004883
0.359955 0.092438 0.001678
0.412079 0.093353 0.000580
0.455688 0.092072 0.000000
0.498352 0.088593 0.000000
0.541351 0.085297 0.000000
0.585449 0.078918 0.000000
0.627838 0.070740 0.000000
0.656677 0.065765 0.000000
0.675507 0.061249 0.000000
0.694031 0.056946 0.000000
0.712036 0.052979 0.000000
0.729401 0.048767 0.000000
0.745941 0.046082 0.000000
0.762207 0.043030 0.000000
0.778381 0.041809 0.000000
0.793976 0.039276 0.000000
0.807098 0.037750 0.000000
0.816498 0.037109 0.000000
0.824615 0.036804 0.000000
0.832703 0.036835 0.000000
0.840881 0.036865 0.000000
0.020172 0.093658 0.016113
0.022461 0.091003 0.015839
0.028107 0.089294 0.015533
0.036987 0.088867 0.015350
0.052887 0.088867 0.015045
0.077972 0.090881 0.014404
0.118958 0.096344 0.013489
0.160187 0.101868 0.011932
0.202545 0.107422 0.010071
0.249237 0.112762 0.007568
0.300140 0.117889 0.004364
0.354828 0.122284 0.001190
0.409637 0.124756 0.000397
0.455719 0.125732 0.000000
0.497131 0.125031 0.000000
0.539642 0.123352 0.000000
0.582550 0.121033 0.000000
0.626526 0.116455 0.000000
0.660065 0.112549 0.000000
0.684540 0.108856 0.000000
0.702759 0.105316 0.000000
0.720612 0.102173 0.000000
0.738159 0.098969 0.000000
0.754608 0.095581 0.000000
0.770721 0.092682 0.000000
0.786682 0.089539 0.000000
0.802490 0.086212 0.000000
0.817169 0.083618 0.000000
0.828949 0.081421 0.000000
0.837189 0.080963 0.000000
0.845093 0.080750 0.000000
0.852997 0.080811 0.000000
0.013947 0.120300 0.015961
0.017181 0.117432 0.015686
0.023499 0.115570 0.015381
0.034058 0.114807 0.015045
0.050934 0.114563 0.014709
0.076813 0.116364 0.014038
0.118805 0.121674 0.012787
0.160034 0.127380 0.011078
0.202454 0.133148 0.009003
0.248077 0.139252 0.006165
0.298004 0.144989 0.003082
0.351013 0.150360 0.000183
0.409698 0.155212 0.000183
0.456543 0.157257 0.000000
0.497345 0.157990 0.000000
0.539185 0.158081 0.000000
0.581573 0.157104 0.000000
0.624268 0.155487 0.000000
0.664886 0.152924 0.000000
0.694061 0.150177 0.000000
0.712189 0.148041 0.000000
0.729919 0.145752 0.000000
0.747345 0.143341 0.000000
0.764191 0.141357 0.000000
0.780212 0.139221 0.000000
0.796051 0.137115 0.000000
0.811646 0.135376 0.000000
0.827362 0.133209 0.000000
0.841644 0.131409 0.000000
0.850372 0.130798 0.000000
0.858337 0.130463 0.000000
0.866028 0.130310 0.000000
0.006134 0.146271 0.014954
0.008575 0.143829 0.014740
0.016388 0.142120 0.014282
0.028076 0.141479 0.013824
0.047058 0.141815 0.013367
0.074371 0.143890 0.012512
0.117737 0.149628 0.011017
0.160889 0.156311 0.008759
0.203278 0.162262 0.006531
0.248840 0.168640 0.003448
0.297546 0.175140 0.002502
0.349548 0.181122 0.000000
0.406769 0.186951 0.000000
0.458099 0.190857 0.000000
0.499847 0.192444 0.000000
0.540863 0.193634 0.000000
0.582642 0.194061 0.000000
0.624878 0.193542 0.000000
0.667358 0.192993 0.000000
0.701904 0.191010 0.000000
0.723053 0.189270 0.000000
0.740631 0.187836 0.000000
0.758118 0.186005 0.000000
0.775116 0.184387 0.000000
0.791229 0.183167 0.000000
0.807007 0.181580 0.000000
0.822540 0.180359 0.000000
0.837891 0.179260 0.000000
0.853302 0.177734 0.000000
0.865234 0.177063 0.000000
0.873322 0.176788 0.000000
0.880951 0.176636 0.000000
0.000000 0.172394 0.013489
0.001678 0.170105 0.013306
0.006897 0.168640 0.012817
0.020325 0.168335 0.012146
0.040588 0.168732 0.011536
0.070740 0.171326 0.010498
0.115784 0.177612 0.008759
0.160156 0.184631 0.006348
0.204254 0.191895 0.004456
0.249725 0.198456 0.001190
0.298279 0.205475 0.000122
0.349091 0.212372 0.000000
0.405396 0.218872 0.000000
0.457092 0.224030 0.000000
0.503204 0.227295 0.000000
0.543823 0.229126 0.000000
0.584991 0.230713 0.000000
0.626617 0.231476 0.000000
0.669250 0.231873 0.000000
0.707733 0.231720 0.000000
0.733429 0.230499 0.000000
0.752106 0.229370 0.000000
0.769470 0.228271 0.000000
0.786652 0.227020 0.000000
0.802948 0.226105 0.000000
0.818695 0.225220 0.000000
0.834167 0.224365 0.000000
0.849457 0.223663 0.000000
0.864716 0.222961 0.000000
0.878326 0.222351 0.000000
0.888977 0.222015 0.000000
0.896576 0.221985 0.000000
0.000000 0.199585 0.011383
0.000000 0.197388 0.011200
0.003021 0.195923 0.010651
0.009888 0.195465 0.009705
0.032135 0.195679 0.008850
0.063873 0.198212 0.007629
0.113525 0.204681 0.005493
0.159149 0.212006 0.002991
0.204285 0.219482 0.001038
0.250336 0.227417 0.001038
0.298676 0.235107 0.000061
0.349213 0.242798 0.000000
0.404419 0.250885 0.000000
0.457825 0.257172 0.000000
0.507263 0.262177 0.000000
0.547424 0.265228 0.000000
0.588379 0.267548 0.000000
0.629791 0.269592 0.000000
0.671875 0.271362 0.000000
0.711609 0.272095 0.000000
0.745728 0.272430 0.000000
0.764404 0.271729 0.000000
0.781769 0.270905 0.000000
0.798889 0.270294 0.000000
0.815430 0.269592 0.000000
0.831421 0.268951 0.000000
0.846802 0.268524 0.000000
0.862061 0.268036 0.000000
0.877258 0.267548 0.000000
0.892487 0.267273 0.000000
0.903961 0.266907 0.000000
0.912872 0.266754 0.000000
0.000000 0.226715 0.008881
0.000000 0.225403 0.008545
0.000000 0.224457 0.007904
0.003906 0.224213 0.006866
0.020111 0.224152 0.005615
0.056000 0.226624 0.004608
0.109375 0.233154 0.002716
0.158325 0.240753 0.002014
0.204437 0.248505 0.000000
0.250946 0.256592 0.000000
0.299408 0.265015 0.000000
0.349640 0.273254 0.000000
0.404266 0.281708 0.000000
0.459656 0.289581 0.000000
0.511017 0.295593 0.000000
0.550690 0.299011 0.000000
0.591217 0.302155 0.000000
0.632446 0.304779 0.000000
0.673859 0.307220 0.000000
0.716156 0.309174 0.000000
0.753845 0.310211 0.000000
0.774872 0.309906 0.000000
0.792206 0.309357 0.000000
0.809265 0.308807 0.000000
0.825989 0.308350 0.000000
0.842102 0.307892 0.000000
0.857452 0.307556 0.000000
0.872620 0.307312 0.000000
0.887695 0.306976 0.000000
0.902649 0.306824 0.000000
0.917053 0.306671 0.000000
0.927124 0.306488 0.000000
0.000000 0.253235 0.006226
0.000000 0.252411 0.005737
0.000000 0.252167 0.005035
0.000000 0.252686 0.003845
0.011841 0.252808 0.002686
0.044434 0.255371 0.001526
0.103821 0.261993 0.000244
0.155548 0.269806 0.000000
0.204376 0.277985 0.000000
0.251434 0.286255 0.000000
0.300293 0.295013 0.000000
0.350433 0.303925 0.000000
0.404572 0.312683 0.000000
0.459991 0.321075 0.000000
0.514740 0.328613 0.000000
0.554138 0.332245 0.000000
0.594208 0.335754 0.000000
0.635010 0.338959 0.000000
0.676086 0.341736 0.000000
0.717712 0.344269 0.000000
0.760315 0.346375 0.000000
0.783752 0.346497 0.000000
0.801910 0.346069 0.000000
0.818878 0.345642 0.000000
0.835602 0.345245 0.000000
0.852020 0.344879 0.000000
0.867310 0.344635 0.000000
0.882446 0.344482 0.000000
0.897491 0.344360 0.000000
0.912262 0.344269 0.000000
0.926666 0.344269 0.000000
0.940369 0.344238 0.000000
0.000000 0.276306 0.003693
0.000000 0.276093 0.002899
0.000000 0.275970 0.002197
0.000000 0.276581 0.001190
0.000061 0.277618 0.001068
0.030914 0.280884 0.000519
0.098846 0.289124 0.000244
0.153198 0.297699 0.000000
0.203583 0.306396 0.000000
0.252106 0.315765 0.000000
0.301239 0.325317 0.000000
0.351624 0.334869 0.000000
0.405457 0.345184 0.000000
0.462250 0.354309 0.000000
0.518646 0.362732 0.000000
0.558075 0.366852 0.000000
0.597931 0.370544 0.000000
0.638367 0.374084 0.000000
0.679016 0.377350 0.000000
0.720337 0.380188 0.000000
0.762299 0.382843 0.000000
0.791351 0.383667 0.000000
0.811890 0.383575 0.000000
0.828766 0.383209 0.000000
0.845428 0.382874 0.000000
0.861847 0.382568 0.000000
0.877533 0.382507 0.000000
0.892792 0.382507 0.000000
0.907928 0.382507 0.000000
0.922943 0.382721 0.000000
0.937988 0.382812 0.000000
0.952576 0.382965 0.000000
0.000000 0.299469 0.001648
0.000000 0.299500 0.001312
0.000000 0.299744 0.000885
0.000000 0.300415 0.000092
0.000031 0.301758 0.000000
0.022583 0.305664 0.000000
0.091217 0.314423 0.000000
0.150085 0.323456 0.000000
0.202454 0.332672 0.000000
0.251648 0.342194 0.000000
0.301514 0.352142 0.000000
0.352020 0.362305 0.000000
0.405670 0.372681 0.000000
0.461823 0.383118 0.000000
0.519623 0.392303 0.000000
0.560944 0.397491 0.000000
0.600616 0.402008 0.000000
0.640808 0.405823 0.000000
0.681366 0.409943 0.000000
0.722321 0.413605 0.000000
0.764008 0.416718 0.000000
0.797424 0.418945 0.000000
0.821228 0.419495 0.000000
0.838196 0.419373 0.000000
0.855042 0.419525 0.000000
0.871552 0.419373 0.000000
0.887482 0.419525 0.000000
0.902893 0.419830 0.000000
0.918121 0.419983 0.000000
0.933167 0.420380 0.000000
0.948120 0.420776 0.000000
0.963318 0.421021 0.000000
0.000000 0.322754 0.000000
0.000000 0.322937 0.000000
0.000000 0.323395 0.000000
0.000000 0.324188 0.000000
0.000000 0.325775 0.000000
0.022186 0.329987 0.000000
0.086548 0.339142 0.000000
0.145294 0.348297 0.000000
0.200714 0.357544 0.000000
0.250854 0.367157 0.000000
0.301208 0.377167 0.000000
0.352051 0.387390 0.000000
0.405396 0.397858 0.000000
0.461365 0.408356 0.000000
0.518494 0.418701 0.000000
0.561371 0.424774 0.000000
0.602753 0.430298 0.000000
0.642639 0.435211 0.000000
0.683136 0.439880 0.000000
0.723969 0.444427 0.000000
0.765350 0.448700 0.000000
0.800903 0.451721 0.000000
0.829926 0.453735 0.000000
0.847107 0.454193 0.000000
0.864044 0.454651 0.000000
0.880829 0.455109 0.000000
0.897125 0.455597 0.000000
0.912750 0.456085 0.000000
0.928009 0.456604 0.000000
0.943085 0.457153 0.000000
0.958038 0.457733 0.000000
0.972900 0.458282 0.000000
0.000000 0.346588 0.000000
0.000000 0.346924 0.000000
0.000000 0.347412 0.000000
0.000000 0.348267 0.000000
0.000000 0.350952 0.000000
0.020264 0.355408 0.000000
0.080139 0.364594 0.000000
0.142303 0.373718 0.000000
0.199219 0.382996 0.000000
0.250763 0.392700 0.000000
0.301453 0.402924 0.000000
0.352448 0.413300 0.000000
0.405670 0.424103 0.000000
0.461243 0.434875 0.000000
0.518066 0.445465 0.000000
0.563660 0.452698 0.000000
0.604858 0.458374 0.000000
0.644501 0.463440 0.000000
0.684692 0.468414 0.000000
0.725281 0.473083 0.000000
0.766266 0.477539 0.000000
0.806641 0.481537 0.000000
0.836914 0.483826 0.000000
0.854095 0.484253 0.000000
0.870972 0.484711 0.000000
0.887756 0.485168 0.000000
0.904236 0.485626 0.000000
0.919800 0.486115 0.000000
0.935028 0.486633 0.000000
0.950134 0.487366 0.000000
0.965088 0.488037 0.000000
0.979980 0.488708 0.000000
0.000000 0.367706 0.000000
0.000000 0.368744 0.000000
0.000000 0.369843 0.000000
0.000000 0.370819 0.000000
0.000000 0.375000 0.000000
0.016998 0.380554 0.000000
0.073547 0.389923 0.000000
0.137604 0.399170 0.000000
0.197357 0.408478 0.000000
0.249786 0.418274 0.000000
0.301483 0.428589 0.000000
0.352783 0.439178 0.000000
0.406036 0.450073 0.000000
0.461365 0.461121 0.000000
0.517975 0.471985 0.000000
0.564545 0.479614 0.000000
0.606903 0.485962 0.000000
0.646362 0.491180 0.000000
0.686401 0.496277 0.000000
0.726624 0.501190 0.000000
0.767334 0.505768 0.000000
0.808197 0.510132 0.000000
0.842743 0.513214 0.000000
0.860809 0.513763 0.000000
0.877686 0.514252 0.000000
0.894409 0.514740 0.000000
0.910919 0.515259 0.000000
0.926727 0.515839 0.000000
0.941895 0.516357 0.000000
0.956940 0.517090 0.000000
0.971893 0.517822 0.000000
0.986786 0.518585 0.000000
0.000000 0.386017 0.000000
0.000000 0.387787 0.000000
0.000000 0.389648 0.000000
0.000000 0.391754 0.000000
0.000000 0.397186 0.000000
0.016998 0.404510 0.000000
0.065643 0.414978 0.000000
0.130188 0.424438 0.000000
0.194336 0.433899 0.000000
0.248383 0.443878 0.000000
0.300842 0.454285 0.000000
0.352936 0.464935 0.000000
0.406342 0.475952 0.000000
0.461700 0.487091 0.000000
0.517975 0.498169 0.000000
0.565796 0.506256 0.000000
0.609161 0.512970 0.000000
0.648224 0.518372 0.000000
0.688141 0.523560 0.000000
0.728210 0.528595 0.000000
0.768433 0.533417 0.000000
0.809662 0.537994 0.000000
0.845001 0.541473 0.000000
0.866364 0.542511 0.000000
0.884064 0.543182 0.000000
0.900757 0.543762 0.000000
0.917297 0.544403 0.000000
0.933167 0.545044 0.000000
0.948639 0.545715 0.000000
0.963623 0.546417 0.000000
0.978516 0.547150 0.000000
0.993286 0.547882 0.000000
0.000000 0.404388 0.000000
0.000000 0.406433 0.000000
0.000000 0.408325 0.000000
0.000000 0.410400 0.000000
0.000000 0.417633 0.000000
0.014435 0.425049 0.000000
0.058594 0.435272 0.000000
0.126923 0.445587 0.000000
0.192596 0.455444 0.000000
0.247772 0.466156 0.000000
0.300873 0.477356 0.000000
0.353241 0.488464 0.000000
0.406921 0.500397 0.000000
0.462250 0.512268 0.000000
0.518585 0.523834 0.000000
0.567993 0.532867 0.000000
0.611298 0.539673 0.000000
0.650238 0.545105 0.000000
0.689911 0.550537 0.000000
0.729797 0.555725 0.000000
0.769745 0.560730 0.000000
0.810577 0.565674 0.000000
0.847504 0.569519 0.000000
0.872406 0.571320 0.000000
0.890228 0.572021 0.000000
0.906921 0.572601 0.000000
0.923370 0.573212 0.000000
0.939392 0.573822 0.000000
0.954926 0.574493 0.000000
0.969818 0.575165 0.000000
0.984650 0.575867 0.000000
0.999420 0.576599 0.000000
0.000000 0.422852 0.000000
0.000000 0.424927 0.000000
0.000000 0.427460 0.000000
0.000000 0.429474 0.000000
0.000000 0.437073 0.000000
0.012177 0.445496 0.000000
0.053070 0.455536 0.000000
0.122009 0.465668 0.000000
0.191193 0.476105 0.000000
0.247040 0.487122 0.000000
0.300781 0.498627 0.000000
0.353607 0.510437 0.000000
0.407318 0.522583 0.000000
0.462616 0.534973 0.000000
0.518982 0.547333 0.000000
0.568970 0.556915 0.000000
0.613129 0.564728 0.000000
0.651855 0.570221 0.000000
0.691498 0.576111 0.000000
0.731201 0.581848 0.000000
0.770966 0.587036 0.000000
0.811615 0.592438 0.000000
0.849762 0.597076 0.000000
0.877014 0.599426 0.000000
0.896271 0.600677 0.000000
0.912933 0.601379 0.000000
0.929382 0.602112 0.000000
0.945465 0.602692 0.000000
0.961121 0.603333 0.000000
0.975983 0.603973 0.000000
0.990753 0.604645 0.000000
1.000000 0.605347 0.000000
0.000000 0.441406 0.000000
0.000000 0.443451 0.000000
0.000000 0.446045 0.000000
0.000000 0.449280 0.000000
0.000000 0.457336 0.000000
0.012177 0.466248 0.000000
0.046936 0.475830 0.000000
0.117706 0.485870 0.000000
0.190063 0.496185 0.000000
0.247040 0.507141 0.000000
0.301056 0.518646 0.000000
0.354126 0.530426 0.000000
0.407776 0.542664 0.000000
0.462952 0.555084 0.000000
0.518951 0.567535 0.000000
0.569702 0.577942 0.000000
0.614258 0.586334 0.000000
0.652863 0.592926 0.000000
0.692505 0.599457 0.000000
0.732178 0.605713 0.000000
0.771820 0.611938 0.000000
0.812378 0.617798 0.000000
0.850403 0.623016 0.000000
0.882141 0.626953 0.000000
0.901917 0.628632 0.000000
0.918671 0.629761 0.000000
0.935272 0.631012 0.000000
0.951385 0.631714 0.000000
0.967194 0.632324 0.000000
0.982025 0.632935 0.000000
0.996735 0.633575 0.000000
1.000000 0.634247 0.000000
0.000000 0.460388 0.000000
0.000000 0.462402 0.000000
0.000000 0.466278 0.000000
0.000000 0.470703 0.000000
0.000000 0.478729 0.000000
0.009064 0.487640 0.000000
0.039398 0.497040 0.000000
0.114594 0.506927 0.000000
0.188538 0.517181 0.000000
0.246582 0.528076 0.000000
0.301392 0.539490 0.000000
0.354675 0.551270 0.000000
0.408508 0.563446 0.000000
0.463562 0.575836 0.000000
0.519470 0.588318 0.000000
0.570770 0.598938 0.000000
0.615326 0.607513 0.000000
0.653809 0.614227 0.000000
0.693085 0.620850 0.000000
0.732635 0.627319 0.000000
0.772125 0.633575 0.000000
0.812225 0.639679 0.000000
0.851471 0.645294 0.000000
0.885406 0.649719 0.000000
0.905853 0.651642 0.000000
0.922577 0.652893 0.000000
0.939117 0.654114 0.000000
0.955475 0.655334 0.000000
0.971375 0.656128 0.000000
0.986328 0.657166 0.000000
1.000000 0.658142 0.000000
1.000000 0.658997 0.000000
0.000000 0.479584 0.000000
0.000000 0.481934 0.000000
0.000000 0.486359 0.000000
0.000000 0.492462 0.000000
0.000000 0.500671 0.000000
0.006348 0.509308 0.000000
0.032257 0.518524 0.000000
0.107849 0.528259 0.000000
0.187012 0.538391 0.000000
0.245911 0.549286 0.000000
0.301483 0.560638 0.000000
0.355377 0.572296 0.000000
0.409332 0.584442 0.000000
0.464478 0.596802 0.000000
0.520264 0.609253 0.000000
0.571777 0.619965 0.000000
0.616577 0.628662 0.000000
0.654846 0.635376 0.000000
0.693970 0.641998 0.000000
0.733154 0.648499 0.000000
0.772461 0.654785 0.000000
0.812408 0.660919 0.000000
0.852295 0.666870 0.000000
0.888062 0.671692 0.000000
0.909515 0.673828 0.000000
0.926147 0.675079 0.000000
0.942627 0.676300 0.000000
0.958954 0.677551 0.000000
0.975098 0.678772 0.000000
0.990112 0.679993 0.000000
1.000000 0.681213 0.000000
1.000000 0.682465 0.000000
0.000000 0.499115 0.000000
0.000000 0.502289 0.000000
0.000000 0.507294 0.000000
0.000000 0.514954 0.000000
0.000000 0.522949 0.000000
0.005920 0.531403 0.000000
0.023254 0.540192 0.000000
0.102448 0.549835 0.000000
0.185242 0.559875 0.000000
0.246002 0.570618 0.000000
0.302032 0.581909 0.000000
0.356415 0.593506 0.000000
0.410645 0.605560 0.000000
0.465820 0.617889 0.000000
0.521515 0.630310 0.000000
0.573242 0.641113 0.000000
0.618042 0.649872 0.000000
0.656097 0.656555 0.000000
0.694977 0.663177 0.000000
0.734009 0.669708 0.000000
0.773041 0.676056 0.000000
0.812714 0.682220 0.000000
0.852417 0.688171 0.000000
0.891602 0.693817 0.000000
0.913055 0.695953 0.000000
0.929688 0.697235 0.000000
0.946075 0.698486 0.000000
0.962372 0.699768 0.000000
0.978485 0.701019 0.000000
0.993622 0.702271 0.000000
1.000000 0.703491 0.000000
1.000000 0.704742 0.000000
0.000000 0.516846 0.000458
0.000000 0.523804 0.000000
0.000000 0.529358 0.000000
0.000000 0.537476 0.000000
0.000000 0.545166 0.000000
0.003174 0.553467 0.000000
0.016937 0.562134 0.000000
0.099304 0.571503 0.000000
0.184418 0.581482 0.000000
0.246185 0.592163 0.000000
0.303253 0.603302 0.000000
0.357941 0.614838 0.000000
0.412415 0.626831 0.000000
0.467590 0.639099 0.000000
0.523285 0.651489 0.000000
0.574890 0.662292 0.000000
0.619629 0.671082 0.000000
0.657532 0.677795 0.000000
0.696167 0.684479 0.000000
0.734985 0.691010 0.000000
0.773895 0.697388 0.000000
0.813232 0.703674 0.000000
0.853149 0.709808 0.000000
0.892853 0.715607 0.000000
0.916534 0.718231 0.000000
0.933136 0.719482 0.000000
0.949463 0.720764 0.000000
0.965698 0.722015 0.000000
0.981781 0.723267 0.000000
0.997009 0.724518 0.000000
1.000000 0.725739 0.000000
1.000000 0.726959 0.000000
0.000000 0.533691 0.002045
0.000000 0.542084 0.000336
0.000000 0.550446 0.000000
0.000000 0.558929 0.000000
0.000000 0.566711 0.000000
0.003143 0.574860 0.000000
0.012207 0.583405 0.000000
0.093567 0.592987 0.000000
0.183746 0.603058 0.000000
0.246521 0.613678 0.000000
0.304291 0.624939 0.000000
0.359680 0.636353 0.000000
0.414307 0.648285 0.000000
0.469666 0.660522 0.000000
0.525269 0.672821 0.000000
0.576752 0.683624 0.000000
0.621368 0.692413 0.000000
0.659058 0.699127 0.000000
0.697571 0.705811 0.000000
0.736176 0.712402 0.000000
0.774872 0.718872 0.000000
0.814056 0.725159 0.000000
0.853607 0.731384 0.000000
0.893951 0.737457 0.000000
0.918488 0.740295 0.000000
0.936523 0.741821 0.000000
0.952850 0.743073 0.000000
0.968994 0.744324 0.000000
0.985046 0.745544 0.000000
1.000000 0.746765 0.000000
1.000000 0.747986 0.000000
1.000000 0.749176 0.000000
0.000000 0.549286 0.007721
0.000000 0.558472 0.001465
0.000000 0.567017 0.000000
0.000000 0.575500 0.000000
0.000000 0.583801 0.000000
0.003113 0.592316 0.000000
0.012024 0.601837 0.000000
0.093994 0.612244 0.000000
0.184631 0.622925 0.000000
0.247925 0.634888 0.000000
0.305969 0.646576 0.000000
0.361633 0.658386 0.000000
0.416656 0.670258 0.000000
0.472046 0.682465 0.000000
0.527679 0.694733 0.000000
0.578705 0.705444 0.000000
0.623199 0.714203 0.000000
0.660736 0.720886 0.000000
0.699036 0.727570 0.000000
0.737518 0.734161 0.000000
0.776031 0.740601 0.000000
0.814972 0.746918 0.000000
0.854401 0.753174 0.000000
0.894379 0.759308 0.000000
0.920532 0.762451 0.000000
0.939880 0.764252 0.000000
0.956085 0.765442 0.000000
0.972198 0.766663 0.000000
0.988190 0.767883 0.000000
1.000000 0.769073 0.000000
1.000000 0.770294 0.000000
1.000000 0.771515 0.000000
0.000000 0.566437 0.016785
0.000000 0.575256 0.009827
0.000000 0.583710 0.003448
0.000000 0.592041 0.002167
0.000000 0.600037 0.000000
0.004730 0.608643 0.000000
0.015015 0.618225 0.000000
0.096252 0.628601 0.000000
0.187164 0.639648 0.000000
0.250336 0.651520 0.000000
0.308319 0.663849 0.000000
0.364166 0.676147 0.000000
0.419098 0.688721 0.000000
0.474518 0.701752 0.000000
0.530090 0.714172 0.000000
0.580597 0.725677 0.000000
0.624908 0.735229 0.000000
