Taquilla/Resources/kodak.CUBE
#Created by: Adobe Photoshop Export Color Lookup Plugin
TITLE "IMG_14BE3AFB20ED-1.jpeg"
#LUT size
LUT_3D_SIZE 5
#data domain
#LUT data points
DOMAIN_MIN 0.000000 0.000000 0.000000
DOMAIN_MAX 0.903226 0.903226 0.903226
0.020905 0.010986 0.010925
0.309875 0.011261 0.004272
0.600403 0.000000 0.000000
0.712158 0.000000 0.000000
0.771881 0.000000 0.000000
0.006134 0.146271 0.014954
0.160889 0.156311 0.008759
0.499847 0.192444 0.000000
0.740631 0.187836 0.000000
0.853302 0.177734 0.000000
0.000000 0.322754 0.000000
0.145294 0.348297 0.000000
0.518494 0.418701 0.000000
0.800903 0.451721 0.000000
0.928009 0.456604 0.000000
0.000000 0.460388 0.000000
0.114594 0.506927 0.000000
0.519470 0.588318 0.000000
0.812225 0.639679 0.000000
0.971375 0.656128 0.000000
0.000000 0.584412 0.027985
0.100708 0.644165 0.000000
0.532562 0.731781 0.000000
0.817322 0.790649 0.000000
0.994476 0.813477 0.000000
0.011719 0.010468 0.193390
0.250336 0.011261 0.190094
0.590240 0.000000 0.169830
0.725800 0.000000 0.147003
0.802704 0.000000 0.134460
0.000000 0.148834 0.159698
0.134064 0.153809 0.156952
0.479095 0.182953 0.153137
0.739960 0.176025 0.138824
0.858856 0.166473 0.134338
0.000000 0.347992 0.186493
0.048248 0.371094 0.179718
0.488647 0.433502 0.165375
0.792511 0.464050 0.138062
0.931061 0.466736 0.125275
0.000000 0.502960 0.216827
0.000000 0.546600 0.207581
0.482025 0.621155 0.185944
0.795197 0.669373 0.150665
0.969360 0.683624 0.126465
0.000000 0.635376 0.262482
0.000000 0.691223 0.255188
0.489105 0.774170 0.233215
0.796021 0.823853 0.202118
0.986420 0.845245 0.178497
0.026428 0.000000 0.359680
0.253632 0.000000 0.388336
0.573212 0.000000 0.399902
0.731049 0.000000 0.392212
0.820068 0.000000 0.382416
0.000000 0.161713 0.388763
0.135590 0.167175 0.397736
0.485016 0.187225 0.416260
0.747498 0.176178 0.417084
0.865723 0.165100 0.415680
0.000000 0.381104 0.425934
0.000000 0.406769 0.434845
0.474792 0.459229 0.450714
0.781219 0.481110 0.450348
0.927490 0.482697 0.446869
0.000000 0.544952 0.446960
0.000000 0.591095 0.457184
0.449249 0.658875 0.467834
0.775940 0.699707 0.465729
0.959381 0.712311 0.461243
0.000000 0.688232 0.475586
0.000000 0.738922 0.482544
0.447540 0.809784 0.488434
0.771362 0.854645 0.484131
0.971313 0.874512 0.478394
0.088348 0.000000 0.475891
0.291473 0.000000 0.514679
0.570343 0.000000 0.534149
0.731323 0.000000 0.533508
0.829712 0.000000 0.534912
0.000000 0.159576 0.531494
0.190460 0.169647 0.559875
0.507996 0.181488 0.588226
0.755096 0.167023 0.597260
0.869476 0.155090 0.598572
0.000000 0.396484 0.591705
0.020325 0.427887 0.617737
0.496521 0.469757 0.645996
0.783234 0.486237 0.654510
0.923645 0.486816 0.653839
0.000000 0.582520 0.626526
0.000000 0.622711 0.646515
0.456879 0.682312 0.670654
0.771088 0.716705 0.678986
0.950317 0.725189 0.678833
0.000000 0.732635 0.652679
0.000000 0.773438 0.667236
0.444397 0.836029 0.685577
0.760529 0.874451 0.691498
0.958588 0.892395 0.691528
0.173828 0.000000 0.556335
0.355011 0.000000 0.590454
0.587830 0.000000 0.614105
0.738861 0.000000 0.626556
0.839905 0.000000 0.638397
0.029755 0.166443 0.644409
0.274078 0.174988 0.675079
0.546539 0.178650 0.706085
0.768158 0.161926 0.721161
0.876953 0.149414 0.726776
0.000000 0.420105 0.723389
0.112183 0.444366 0.751831
0.529144 0.475861 0.784698
0.797852 0.489380 0.801086
0.924927 0.488892 0.804474
0.000000 0.615021 0.768280
0.000000 0.649048 0.792572
0.495056 0.698730 0.823853
0.783630 0.725983 0.839508
0.947083 0.732117 0.843536
0.000000 0.766815 0.798584
0.000000 0.801849 0.817902
0.470154 0.855438 0.843689
0.767548 0.888519 0.853699
0.952118 0.903290 0.856171
