Taquilla/Resources/lut2.CUBE
#Created by: Adobe Photoshop Export Color Lookup Plugin
TITLE "IMG_14BE3AFB20ED-1.jpeg"
#LUT size
LUT_3D_SIZE 8
#data domain
#LUT data points
DOMAIN_MIN 0.000000 0.000000 0.000000
DOMAIN_MAX 0.903226 0.903226 0.903226
0.064667 0.049316 0.028534
0.126160 0.049438 0.028625
0.250153 0.049622 0.028748
0.377289 0.049835 0.028900
0.476379 0.049988 0.029022
0.589691 0.050171 0.029114
0.683350 0.050323 0.029236
0.759857 0.050446 0.029327
0.078918 0.095581 0.036957
0.133240 0.109161 0.027985
0.261993 0.103363 0.025787
0.383087 0.102020 0.027130
0.476379 0.103363 0.029022
0.589691 0.103516 0.029114
0.683350 0.103760 0.029236
0.759857 0.103851 0.029327
0.107727 0.194855 0.055359
0.144135 0.202454 0.050110
0.271606 0.238770 0.026947
0.416443 0.236023 0.022217
0.513428 0.227783 0.021881
0.625519 0.221619 0.020844
0.717651 0.217926 0.020294
0.792297 0.215668 0.020111
0.137238 0.301819 0.075836
0.176331 0.301819 0.075836
0.265289 0.355286 0.039734
0.413483 0.378906 0.025879
0.524078 0.377380 0.025055
0.655792 0.374359 0.018158
0.747223 0.365326 0.017944
0.822327 0.359619 0.017548
0.160248 0.387756 0.092743
0.199341 0.387756 0.092743
0.274139 0.429932 0.062775
0.411987 0.491638 0.025055
0.524078 0.491638 0.025055
0.650543 0.489899 0.024109
0.766998 0.492554 0.016998
0.846893 0.485077 0.015076
0.186584 0.488190 0.113007
0.225647 0.488190 0.113007
0.296661 0.516174 0.092194
0.402771 0.581970 0.047821
0.522400 0.623474 0.024109
0.650543 0.623474 0.024109
0.755035 0.621979 0.023315
0.840424 0.620667 0.022705
0.208313 0.572571 0.130402
0.247437 0.572571 0.130402
0.319458 0.590698 0.116516
0.408142 0.655121 0.070557
0.512634 0.707367 0.037994
0.649139 0.734344 0.023315
0.755035 0.734344 0.023315
0.840424 0.733063 0.022705
0.226074 0.642426 0.144989
0.265167 0.642426 0.144989
0.341370 0.648743 0.140045
0.417969 0.716980 0.089447
0.510193 0.769745 0.054565
0.647888 0.826080 0.022705
0.753845 0.826080 0.022705
0.840424 0.826080 0.022705
0.063721 0.048523 0.072998
0.119904 0.054688 0.063629
0.246521 0.052704 0.069000
0.377289 0.049835 0.068268
0.476379 0.049988 0.068420
0.589691 0.050171 0.068542
0.683350 0.050323 0.068726
0.759857 0.050446 0.068787
0.073761 0.092377 0.059906
0.132324 0.108337 0.072327
0.256348 0.108551 0.072510
0.383484 0.108765 0.072662
0.482574 0.108948 0.072815
0.595917 0.109131 0.072968
0.689545 0.109314 0.073090
0.766052 0.109436 0.073181
0.105347 0.193451 0.081238
0.161102 0.208435 0.093384
0.270691 0.237885 0.071014
0.408783 0.232178 0.066803
0.505798 0.226624 0.066284
0.617615 0.222473 0.065155
0.706146 0.221863 0.066864
0.777679 0.222321 0.068787
0.137238 0.301819 0.105011
0.190643 0.315948 0.116211
0.269135 0.346558 0.092468
0.412567 0.377991 0.069641
0.526154 0.377777 0.066498
0.648132 0.369965 0.061432
0.739655 0.362488 0.061066
0.814758 0.357849 0.060577
0.160248 0.387756 0.123138
0.213654 0.402191 0.134735
0.287048 0.421295 0.119537
0.409088 0.485992 0.071777
0.523132 0.490662 0.068604
0.649597 0.488953 0.067413
0.763489 0.489044 0.058258
0.838959 0.480591 0.057495
0.186584 0.488190 0.144653
0.239960 0.502869 0.156677
0.316589 0.508057 0.152466
0.405457 0.573303 0.101807
0.521484 0.622467 0.067413
0.649597 0.622467 0.067413
0.754120 0.621033 0.066437
0.842224 0.621063 0.063751
0.208313 0.572571 0.163055
0.261719 0.587524 0.175354
0.340668 0.587524 0.175354
0.415955 0.646759 0.128021
0.511780 0.698853 0.089783
0.648254 0.733368 0.066437
0.754120 0.733368 0.066437
0.839478 0.732025 0.065613
0.226074 0.642426 0.178375
0.279480 0.657532 0.190979
0.358337 0.657532 0.190979
0.429688 0.706696 0.150909
0.512604 0.760590 0.109985
0.644501 0.819214 0.069427
0.752869 0.825073 0.065613
0.839478 0.825073 0.065613
0.061859 0.046967 0.184021
0.131592 0.049652 0.179016
0.231262 0.065643 0.149353
0.354645 0.069122 0.161957
0.458649 0.065063 0.167236
0.577362 0.060608 0.169037
0.674866 0.057495 0.169006
0.755768 0.053894 0.167877
0.068176 0.107971 0.174286
0.130463 0.106659 0.183197
0.243713 0.119934 0.159882
0.370209 0.120789 0.171021
0.473663 0.117004 0.173309
0.593201 0.111603 0.172394
0.689545 0.109314 0.171448
0.766052 0.109436 0.171448
0.092072 0.184601 0.135773
0.150635 0.201538 0.150635
0.268829 0.236084 0.181580
0.395996 0.236298 0.181793
0.495087 0.236481 0.181946
0.608429 0.236725 0.182159
0.702057 0.236908 0.182312
0.778564 0.237030 0.182434
0.119263 0.290009 0.157440
0.179962 0.309753 0.174774
0.298340 0.344574 0.207886
0.410675 0.376068 0.179901
0.521545 0.372894 0.174866
0.632996 0.364899 0.173706
0.725464 0.360779 0.172455
0.800537 0.358429 0.171814
0.146240 0.379089 0.179718
0.207947 0.398254 0.198120
0.321350 0.431427 0.228943
0.406677 0.467743 0.196655
0.521271 0.488739 0.178589
0.654327 0.489258 0.171387
0.749146 0.479919 0.168915
0.823730 0.473938 0.168732
0.176971 0.483368 0.206451
0.238708 0.502869 0.225830
0.347687 0.532715 0.253601
0.423126 0.555511 0.233032
0.515228 0.606689 0.188660
0.647736 0.620514 0.177094
0.752228 0.619080 0.175873
0.847473 0.621307 0.166351
0.202820 0.570648 0.229492
0.261719 0.587524 0.246979
0.369415 0.617737 0.274353
0.446075 0.628540 0.264526
0.516052 0.680786 0.218323
0.646362 0.731354 0.175873
0.752228 0.731354 0.175873
0.837616 0.730103 0.174835
0.224243 0.642548 0.249023
0.279480 0.657532 0.263733
0.387177 0.688049 0.291626
0.467560 0.689209 0.290558
0.525513 0.741791 0.243286
0.638672 0.801788 0.192230
0.751068 0.823059 0.174835
0.837616 0.823059 0.174835
0.059967 0.045380 0.317596
0.129456 0.045380 0.317596
0.252777 0.067047 0.272461
0.345459 0.077057 0.251495
0.434479 0.086090 0.261261
0.551666 0.082855 0.275360
0.649445 0.079407 0.282257
0.729919 0.076080 0.285645
0.059967 0.105774 0.317596
0.128540 0.104950 0.316681
0.263275 0.118164 0.290894
0.357910 0.131958 0.263336
0.448303 0.140167 0.273743
0.566895 0.135559 0.286041
0.665558 0.131104 0.290863
0.744965 0.128571 0.292969
0.097626 0.212219 0.250427
0.150482 0.227631 0.277313
0.266907 0.234222 0.314819
0.383057 0.248840 0.287598
0.480042 0.251068 0.298615
0.598450 0.246338 0.303162
0.696960 0.241791 0.302887
0.776581 0.238953 0.302032
0.110870 0.283844 0.225739
0.169434 0.301392 0.242340
0.287628 0.337158 0.276703
0.408783 0.374176 0.312927
0.507904 0.374359 0.313110
0.621246 0.374573 0.313324
0.714874 0.374756 0.313507
0.791382 0.374908 0.313660
0.125519 0.363525 0.239349
0.186035 0.383636 0.258179
0.309143 0.423859 0.297058
0.431793 0.461609 0.335999
0.519379 0.486786 0.311432
0.641510 0.481079 0.306366
0.733276 0.475891 0.305542
0.808624 0.473145 0.304565
0.156311 0.467224 0.266449
0.216339 0.488495 0.285980
0.340332 0.528595 0.326660
0.458099 0.563446 0.362823
0.519653 0.587341 0.339508
0.645844 0.618500 0.309753
0.754272 0.618652 0.304443
0.835571 0.612335 0.300140
0.180420 0.556030 0.289948
0.242706 0.575287 0.309998
0.366638 0.616058 0.352325
0.479858 0.648895 0.385345
0.538757 0.661438 0.373047
0.641388 0.720886 0.316223
0.750336 0.729309 0.308350
0.835693 0.728088 0.307220
0.202423 0.627197 0.309723
0.265015 0.646393 0.330536
0.387177 0.688049 0.373138
0.497620 0.719482 0.403992
0.559509 0.722107 0.401367
0.639221 0.782013 0.343506
0.749176 0.820984 0.307220
0.835693 0.820984 0.307220
0.058472 0.044159 0.432098
0.127930 0.044159 0.432098
0.263245 0.060883 0.394745
0.355896 0.086121 0.338928
0.434479 0.086090 0.338715
0.536255 0.096497 0.350647
0.628876 0.097626 0.363525
0.709534 0.094055 0.372711
0.058472 0.104401 0.432098
0.127045 0.103607 0.431091
0.267426 0.110992 0.415527
0.371796 0.138519 0.357758
0.446930 0.141418 0.351379
0.548737 0.152283 0.363434
0.644836 0.150177 0.376678
0.725128 0.146790 0.384308
0.088928 0.227631 0.373932
0.141815 0.234802 0.403229
0.265411 0.232788 0.429077
0.399597 0.248962 0.397156
0.472076 0.258820 0.377258
0.578522 0.265747 0.391113
0.676636 0.261536 0.400543
0.756622 0.258301 0.404480
0.125519 0.298248 0.302429
0.181824 0.318634 0.324921
0.290222 0.359802 0.381042
0.407288 0.372681 0.427063
0.497833 0.384521 0.404205
0.611267 0.384613 0.415802
0.709473 0.380188 0.417267
0.789886 0.376404 0.416199
0.125519 0.363525 0.302429
0.184082 0.381470 0.320160
0.302277 0.417969 0.356689
0.423431 0.455688 0.395020
0.517883 0.485260 0.425476
0.631226 0.485474 0.425690
0.724854 0.485657 0.425903
0.801392 0.485809 0.426056
0.142273 0.456604 0.319061
0.200867 0.475220 0.337250
0.324310 0.515869 0.378265
0.450256 0.558472 0.422150
0.544189 0.587494 0.453766
0.644348 0.616943 0.423645
0.748016 0.613342 0.418488
0.823975 0.607452 0.416809
0.165741 0.541748 0.340698
0.226501 0.562592 0.361237
0.349518 0.604340 0.403564
0.476044 0.646820 0.448914
0.565948 0.673279 0.477448
0.640991 0.705872 0.444061
0.748840 0.727722 0.422150
0.835449 0.727081 0.419617
0.186127 0.614441 0.360779
0.246826 0.635620 0.381683
0.369995 0.677521 0.424774
0.497589 0.719421 0.471680
0.583710 0.744080 0.497009
0.651550 0.766907 0.473572
0.746521 0.816772 0.423523
0.834229 0.819397 0.420929
0.056763 0.042755 0.572144
0.126190 0.042755 0.572144
0.266785 0.053040 0.547302
0.381470 0.079346 0.485138
0.446228 0.096497 0.445190
0.536255 0.096497 0.445190
0.620392 0.105164 0.455688
0.689117 0.112335 0.464264
0.056763 0.102814 0.572144
0.125336 0.102081 0.571075
0.265472 0.102081 0.570465
0.392761 0.131531 0.505585
0.459564 0.151489 0.460205
0.548737 0.152283 0.458679
0.632843 0.161346 0.469299
0.701569 0.168762 0.477905
0.077820 0.234009 0.529022
0.130341 0.234253 0.561005
0.263702 0.231140 0.568939
0.407257 0.240906 0.548889
0.490356 0.263672 0.500732
0.573883 0.270264 0.486176
0.657959 0.279755 0.496857
0.733673 0.280701 0.508240
0.119995 0.331940 0.442871
0.173676 0.349091 0.472565
0.280090 0.372101 0.535492
0.405579 0.370941 0.566772
0.514374 0.381683 0.544952
0.599640 0.396393 0.514679
0.686127 0.403809 0.526581
0.766693 0.399841 0.536163
0.142273 0.380371 0.395966
0.200836 0.398438 0.414825
0.311707 0.442505 0.469421
0.422546 0.479614 0.532043
0.516174 0.483490 0.565063
0.619690 0.497375 0.537140
0.711914 0.499023 0.548981
0.791962 0.495544 0.552673
0.142273 0.456604 0.395966
0.200836 0.474945 0.414825
0.319000 0.512115 0.453461
0.440186 0.550507 0.493896
0.534637 0.580597 0.525940
0.642639 0.615143 0.563110
0.736328 0.615326 0.563324
0.812836 0.615509 0.563507
0.156097 0.534851 0.410522
0.214661 0.553436 0.429596
0.332855 0.591156 0.468536
0.456635 0.633148 0.512421
0.555756 0.665955 0.548431
0.664368 0.701202 0.587982
0.747131 0.725891 0.561554
0.832306 0.722992 0.556580
0.167480 0.600067 0.422852
0.227905 0.621338 0.444458
0.352112 0.662170 0.487823
0.477844 0.705872 0.534027
0.576599 0.739410 0.571320
0.682129 0.772278 0.608459
0.744293 0.799805 0.578979
0.832520 0.817566 0.560211
0.055359 0.041595 0.694244
0.124878 0.041595 0.694244
0.266388 0.047089 0.680756
0.393494 0.073242 0.615204
0.468323 0.093048 0.566711
0.545990 0.105164 0.537933
0.620392 0.105164 0.537933
0.689117 0.112335 0.546875
0.055359 0.101654 0.694244
0.123932 0.100800 0.693176
0.264252 0.100800 0.693176
0.401245 0.125122 0.636780
0.481842 0.146118 0.587372
0.558472 0.161346 0.552002
0.632843 0.161346 0.552002
0.701569 0.168762 0.560944
0.069885 0.234985 0.664154
0.123932 0.231659 0.693176
0.262299 0.229797 0.690887
0.406830 0.233398 0.683228
0.505280 0.256714 0.631744
0.583588 0.279755 0.580627
0.657959 0.279755 0.580627
0.726685 0.287537 0.589691
0.111725 0.350006 0.573578
0.165161 0.362244 0.605255
0.270660 0.372955 0.673004
0.404175 0.369537 0.688629
0.516876 0.374817 0.677948
0.613922 0.401733 0.620270
0.683716 0.406219 0.610321
0.752441 0.414276 0.619537
0.142792 0.407928 0.506927
0.196960 0.428558 0.536804
0.305084 0.464905 0.599792
0.413910 0.484619 0.668274
0.514771 0.482056 0.686859
0.635162 0.496979 0.655792
0.703796 0.507385 0.633698
0.772522 0.515594 0.642944
0.156097 0.470795 0.477325
0.214661 0.489227 0.497009
0.332855 0.526520 0.537262
0.450012 0.569580 0.588623
0.536713 0.602814 0.639496
0.641235 0.613678 0.684845
0.726776 0.625366 0.660706
0.801849 0.627075 0.670837
0.156097 0.534851 0.477325
0.214661 0.553436 0.497009
0.332855 0.591156 0.537262
0.454010 0.629974 0.579224
0.548462 0.660431 0.612427
0.656464 0.695404 0.650940
0.745728 0.724396 0.683167
0.822266 0.724548 0.683319
0.167419 0.599609 0.489746
0.225983 0.618347 0.509491
0.344147 0.656433 0.550018
0.465332 0.695618 0.592224
0.560669 0.727783 0.627014
0.673401 0.766388 0.670197
0.763489 0.795654 0.704376
0.831085 0.816010 0.681793
0.054199 0.040619 0.797913
0.123688 0.040619 0.797913
0.263794 0.040619 0.796997
0.399536 0.069000 0.725433
0.482422 0.089355 0.674042
0.555176 0.111206 0.619049
0.628296 0.112335 0.616577
0.689117 0.112335 0.616577
0.054199 0.100586 0.797913
0.122772 0.099762 0.796722
0.262939 0.099762 0.796722
0.404572 0.119141 0.749817
0.493988 0.141266 0.697052
0.571259 0.164459 0.640930
0.640717 0.168762 0.631104
0.701569 0.168762 0.631104
0.061707 0.233368 0.781799
0.122772 0.230408 0.796722
0.261139 0.228668 0.794434
0.404968 0.228668 0.794434
0.511536 0.251465 0.743225
0.601379 0.277588 0.684143
0.665863 0.287537 0.660583
0.726685 0.287537 0.660583
0.105652 0.359558 0.685089
0.158447 0.368317 0.718781
0.263367 0.371063 0.789764
0.403015 0.368378 0.792053
0.515106 0.368378 0.792053
0.627869 0.396179 0.731384
0.691650 0.414276 0.691162
0.752441 0.414276 0.691162
0.138000 0.429077 0.613831
0.189911 0.446991 0.647797
0.297882 0.475067 0.713593
0.405487 0.483032 0.786377
0.513611 0.480865 0.790253
0.640594 0.490753 0.769012
0.713959 0.513489 0.719818
0.772522 0.515594 0.715210
0.167419 0.482391 0.546356
0.223907 0.503326 0.571228
0.333191 0.549652 0.633667
0.444275 0.590942 0.700287
0.529572 0.612152 0.754944
0.640076 0.612457 0.788177
0.739410 0.625366 0.761261
0.795502 0.633728 0.742950
0.167419 0.546600 0.546356
0.225983 0.565186 0.566620
0.344147 0.602997 0.608063
0.465332 0.641937 0.651215
0.558868 0.673615 0.687592
0.658112 0.713867 0.747742
0.744568 0.723175 0.786407
0.814484 0.732880 0.766052
0.167419 0.599609 0.546356
0.225983 0.618347 0.566620
0.344147 0.656433 0.608063
0.465332 0.695618 0.651215
0.559784 0.726349 0.685333
0.667786 0.761597 0.724792
0.757050 0.790863 0.757843
0.829956 0.814819 0.785004
