Taquilla/Resources/lut2.CUBE
#Created by: Adobe Photoshop Export Color Lookup Plugin
TITLE "IMG_14BE3AFB20ED-1.jpeg"
#LUT size
LUT_3D_SIZE 5
#data domain
#LUT data points
DOMAIN_MIN 0.000000 0.000000 0.000000
DOMAIN_MAX 0.903226 0.903226 0.903226
0.064667 0.049316 0.028534
0.215149 0.049561 0.028687
0.425751 0.049896 0.028961
0.615967 0.050232 0.029144
0.759857 0.050446 0.029327
0.099609 0.166229 0.050018
0.232574 0.201324 0.027252
0.455719 0.190887 0.022736
0.643433 0.182770 0.021179
0.779755 0.181824 0.023163
0.148499 0.343628 0.084015
0.239075 0.374725 0.061920
0.467560 0.433685 0.025482
0.691711 0.434448 0.017548
0.833649 0.419342 0.016693
0.192688 0.511749 0.117828
0.285217 0.519104 0.112213
0.456909 0.628113 0.038391
0.679871 0.654419 0.023865
0.840424 0.652069 0.022705
0.226074 0.642426 0.144989
0.321899 0.642426 0.144989
0.459473 0.742523 0.072052
0.677643 0.826080 0.022705
0.840424 0.826080 0.022705
0.062408 0.047424 0.150421
0.199829 0.062531 0.123535
0.412323 0.061279 0.138153
0.611664 0.053864 0.138245
0.759857 0.050446 0.136902
0.086914 0.158051 0.113007
0.230316 0.199188 0.148560
0.440918 0.199554 0.148865
0.631165 0.199921 0.149200
0.775055 0.200195 0.149445
0.138336 0.337402 0.153107
0.279205 0.378632 0.190735
0.465302 0.431396 0.145905
0.674988 0.423492 0.137360
0.815857 0.413513 0.136505
0.191010 0.511047 0.197723
0.323395 0.548004 0.230835
0.460236 0.606567 0.180298
0.677582 0.651978 0.143494
0.840485 0.650879 0.139771
0.226074 0.642426 0.229462
0.356781 0.679413 0.262238
0.482269 0.719299 0.227051
0.673737 0.819855 0.144623
0.838135 0.823639 0.141693
0.059235 0.044800 0.372589
0.227234 0.056976 0.346405
0.389008 0.081482 0.293427
0.568512 0.091278 0.315491
0.719055 0.085632 0.328888
0.082428 0.194763 0.330261
0.227142 0.196167 0.370239
0.419495 0.220032 0.323608
0.607635 0.222412 0.344421
0.757996 0.216461 0.349792
0.118011 0.322571 0.262604
0.261444 0.366272 0.305115
0.462128 0.428162 0.366974
0.652405 0.428528 0.367340
0.796265 0.428802 0.367645
0.155029 0.486023 0.297455
0.304108 0.536224 0.346680
0.506287 0.599121 0.413147
0.674438 0.648682 0.364014
0.835815 0.643982 0.355347
0.194244 0.621277 0.334290
0.343536 0.672333 0.385529
0.539703 0.731476 0.448914
0.668243 0.789246 0.391602
0.834991 0.820221 0.361786
0.056366 0.042419 0.605865
0.226776 0.043396 0.603119
0.420349 0.087311 0.498016
0.559875 0.098938 0.470795
0.689117 0.112335 0.487122
0.063477 0.197266 0.591431
0.224274 0.193451 0.603210
0.450165 0.217957 0.549896
0.590363 0.239014 0.504364
0.719604 0.253479 0.520996
0.132385 0.363770 0.447815
0.263824 0.409027 0.521149
0.459259 0.425232 0.599579
0.633026 0.448273 0.552216
0.773376 0.452179 0.570923
0.146149 0.478455 0.418457
0.289551 0.523621 0.465515
0.490234 0.587463 0.533295
0.671570 0.645630 0.596283
0.815491 0.645935 0.596588
0.167419 0.599609 0.441162
0.312378 0.647675 0.490814
0.521545 0.719116 0.567383
0.704987 0.778839 0.635101
0.832123 0.817139 0.593781
0.054199 0.040619 0.797913
0.224457 0.040619 0.797913
0.442352 0.078644 0.700531
0.574768 0.112335 0.616577
0.689117 0.112335 0.616577
0.054199 0.193634 0.797913
0.222107 0.191406 0.795074
0.458954 0.207916 0.757385
0.608704 0.250641 0.658966
0.719604 0.253479 0.652252
0.121521 0.396698 0.650055
0.250580 0.423798 0.732483
0.457092 0.423035 0.791199
0.657166 0.448914 0.735413
0.762268 0.463562 0.702911
0.167419 0.500366 0.546356
0.309937 0.546875 0.598389
0.494995 0.621979 0.707062
0.669403 0.643341 0.787689
0.800842 0.661438 0.749451
0.167419 0.599609 0.546356
0.310822 0.645660 0.596313
0.511505 0.710632 0.667847
0.692841 0.769806 0.734039
0.829956 0.814819 0.785004
