Taquilla/Resources/lut2.CUBE
#Created by: Adobe Photoshop Export Color Lookup Plugin
TITLE "IMG_14BE3AFB20ED-1.jpeg"
#LUT size
LUT_3D_SIZE 32
#data domain
DOMAIN_MIN 0.0 0.0 0.0
DOMAIN_MAX 1.0 1.0 1.0
#LUT data points
0.064667 0.049316 0.028534
0.064667 0.049316 0.028534
0.077332 0.049347 0.028564
0.101166 0.049377 0.028595
0.126160 0.049438 0.028625
0.152954 0.049469 0.028625
0.182434 0.049500 0.028656
0.215149 0.049561 0.028687
0.250153 0.049622 0.028748
0.285583 0.049683 0.028778
0.319550 0.049713 0.028809
0.350250 0.049774 0.028870
0.377289 0.049835 0.028900
0.401917 0.049866 0.028931
0.425751 0.049896 0.028961
0.450104 0.049927 0.028961
0.476379 0.049988 0.029022
0.504303 0.050049 0.029053
0.533020 0.050079 0.029083
0.561798 0.050140 0.029114
0.589691 0.050171 0.029114
0.615967 0.050232 0.029144
0.640167 0.050293 0.029205
0.662476 0.050293 0.029205
0.683350 0.050323 0.029236
0.703125 0.050385 0.029266
0.722229 0.050415 0.029297
0.740997 0.050446 0.029297
0.759857 0.050446 0.029327
0.779175 0.050507 0.029358
0.799316 0.050537 0.029358
0.817963 0.050537 0.029388
0.064667 0.049316 0.028534
0.064667 0.049316 0.028534
0.077332 0.049347 0.028564
0.101166 0.049377 0.028595
0.126160 0.049438 0.028625
0.152954 0.049469 0.028625
0.182434 0.049500 0.028656
0.215149 0.049561 0.028687
0.250153 0.049622 0.028748
0.285583 0.049683 0.028778
0.319550 0.049713 0.028809
0.350250 0.049774 0.028870
0.377289 0.049835 0.028900
0.401917 0.049866 0.028931
0.425751 0.049896 0.028961
0.450104 0.049927 0.028961
0.476379 0.049988 0.029022
0.504303 0.050049 0.029053
0.533020 0.050079 0.029083
0.561798 0.050140 0.029114
0.589691 0.050171 0.029114
0.615967 0.050232 0.029144
0.640167 0.050293 0.029205
0.662476 0.050293 0.029205
0.683350 0.050323 0.029236
0.703125 0.050385 0.029266
0.722229 0.050415 0.029297
0.740997 0.050446 0.029297
0.759857 0.050446 0.029327
0.779175 0.050507 0.029358
0.799316 0.050537 0.029358
0.817963 0.050537 0.029388
0.067596 0.058594 0.030212
0.067596 0.058594 0.030212
0.078766 0.061249 0.028442
0.103546 0.060211 0.028015
0.127655 0.059784 0.028107
0.152954 0.060150 0.028625
0.182434 0.060211 0.028656
0.215149 0.060211 0.028687
0.250153 0.060303 0.028748
0.285583 0.060364 0.028778
0.319550 0.060425 0.028809
0.350250 0.060455 0.028870
0.377289 0.060547 0.028900
0.401917 0.060577 0.028931
0.425751 0.060577 0.028961
0.450104 0.060577 0.028961
0.476379 0.060669 0.029022
0.504303 0.060730 0.029053
0.533020 0.060822 0.029083
0.561798 0.060822 0.029114
0.589691 0.060883 0.029114
0.615967 0.060913 0.029144
0.640167 0.060974 0.029205
0.662476 0.061035 0.029205
0.683350 0.061035 0.029236
0.703125 0.061035 0.029266
0.722229 0.061127 0.029297
0.740997 0.061188 0.029297
0.759857 0.061066 0.029327
0.779175 0.061127 0.029358
0.799316 0.061157 0.029358
0.817963 0.061279 0.029388
0.073120 0.076416 0.033478
0.073120 0.076416 0.033478
0.080627 0.078003 0.032410
0.105377 0.084351 0.028229
0.133881 0.083893 0.027283
0.160034 0.081970 0.027191
0.189209 0.080719 0.026917
0.221130 0.079926 0.026855
0.253601 0.080231 0.027710
0.286591 0.080750 0.028534
0.319550 0.080994 0.028809
0.350250 0.081055 0.028870
0.377289 0.081116 0.028900
0.401917 0.081116 0.028931
0.425751 0.081207 0.028961
0.450104 0.081238 0.028961
0.476379 0.081268 0.029022
0.504303 0.081329 0.029053
0.533020 0.081360 0.029083
0.561798 0.081482 0.029114
0.589691 0.081512 0.029114
0.615967 0.081512 0.029144
0.640167 0.081604 0.029205
0.662476 0.081573 0.029205
0.683350 0.081665 0.029236
0.703125 0.081665 0.029266
0.722229 0.081665 0.029297
0.740997 0.081726 0.029297
0.759857 0.081757 0.029327
0.779175 0.081757 0.029358
0.799316 0.081757 0.029358
0.817963 0.081787 0.029388
0.078918 0.095581 0.036957
0.078918 0.095581 0.036957
0.086975 0.095581 0.036957
0.104126 0.105011 0.030670
0.133240 0.109161 0.027985
0.164307 0.109222 0.027130
0.195221 0.107086 0.026306
0.227112 0.105011 0.026276
0.261993 0.103363 0.025787
0.296387 0.102325 0.025787
0.329620 0.101471 0.025665
0.358337 0.101562 0.026306
0.383087 0.102020 0.027130
0.406555 0.102020 0.027405
0.428406 0.102631 0.028137
0.451447 0.102966 0.028534
0.476379 0.103363 0.029022
0.504303 0.103455 0.029053
0.533020 0.103546 0.029083
0.561798 0.103485 0.029114
0.589691 0.103516 0.029114
0.615967 0.103668 0.029144
0.640167 0.103638 0.029205
0.662476 0.103699 0.029205
0.683350 0.103760 0.029236
0.703125 0.103729 0.029266
0.722229 0.103851 0.029297
0.740997 0.103821 0.029297
0.759857 0.103851 0.029327
0.779175 0.103851 0.029358
0.799316 0.104004 0.029358
0.817963 0.103943 0.029388
0.085144 0.116455 0.040802
0.085144 0.116455 0.040802
0.093201 0.116455 0.040802
0.107086 0.123199 0.036285
0.131958 0.134277 0.029083
0.163147 0.136383 0.027771
0.196075 0.135986 0.027527
0.233490 0.134918 0.025635
0.268188 0.132080 0.025269
0.303162 0.129944 0.024963
0.336060 0.128479 0.025024
0.366577 0.127258 0.024628
0.392853 0.126556 0.024658
0.417297 0.125702 0.024384
0.440186 0.125275 0.024506
0.462830 0.125366 0.025085
0.487946 0.125183 0.025330
0.513702 0.125519 0.026062
0.540131 0.126190 0.026978
0.567200 0.126373 0.027435
0.593414 0.126831 0.027954
0.617950 0.127350 0.028534
0.640320 0.127869 0.029205
0.662476 0.127930 0.029205
0.683350 0.127899 0.029236
0.703125 0.127930 0.029266
0.722229 0.128052 0.029297
0.740997 0.128113 0.029297
0.759857 0.128052 0.029327
0.779175 0.128143 0.029358
0.799316 0.128143 0.029358
0.817963 0.128204 0.029388
0.092010 0.139862 0.045105
0.092010 0.139862 0.045105
0.100067 0.139862 0.045105
0.113892 0.143127 0.042877
0.131836 0.154877 0.035095
0.162720 0.166901 0.027527
0.196075 0.166901 0.027527
0.232574 0.166443 0.027252
0.274963 0.166565 0.024719
0.310089 0.163116 0.024353
0.343109 0.160614 0.024384
0.373138 0.158783 0.024231
0.400116 0.157349 0.023865
0.423950 0.156311 0.023926
0.447632 0.155304 0.023621
0.471100 0.154663 0.023743
0.497192 0.153717 0.023438
0.524872 0.152710 0.023132
0.553406 0.151794 0.022797
0.580017 0.151825 0.023560
0.605530 0.152252 0.024445
0.631378 0.151672 0.024231
0.652924 0.152374 0.025330
0.673645 0.152710 0.025879
0.694183 0.152466 0.025787
0.712250 0.152924 0.026398
0.729553 0.153473 0.027069
0.747894 0.153229 0.027039
0.764923 0.153931 0.027740
0.782318 0.154633 0.028534
0.801941 0.154633 0.028534
0.818573 0.155365 0.029388
0.099609 0.166229 0.050018
0.099609 0.166229 0.050018
0.107666 0.166229 0.050018
0.122833 0.166229 0.050018
0.136475 0.177765 0.042145
0.160156 0.189972 0.034210
0.195587 0.201324 0.027252
0.232574 0.201324 0.027252
0.271606 0.200806 0.026947
0.314941 0.201630 0.024536
0.351379 0.199005 0.023376
0.380951 0.196075 0.023499
0.407410 0.194092 0.023438
0.431976 0.192413 0.023071
0.455719 0.190887 0.022736
0.479309 0.189667 0.022797
0.505463 0.188324 0.022461
0.532410 0.187225 0.022552
0.560974 0.186005 0.022186
0.589630 0.184875 0.021851
0.616302 0.184204 0.022095
0.643433 0.182770 0.021179
0.666382 0.182465 0.021515
0.688599 0.181732 0.021271
0.708038 0.181671 0.021698
0.726349 0.181671 0.022156
0.743835 0.181824 0.022705
0.761200 0.182129 0.023285
0.779755 0.181824 0.023163
0.797333 0.182159 0.023773
0.815704 0.182556 0.024475
0.833984 0.182159 0.024353
0.107727 0.194855 0.055359
0.107727 0.194855 0.055359
0.115753 0.194855 0.055359
0.130951 0.194855 0.055359
0.144135 0.202454 0.050110
0.162872 0.214996 0.041687
0.192383 0.229156 0.032715
0.232025 0.238770 0.026947
0.271606 0.238770 0.026947
0.311157 0.238251 0.026642
0.350708 0.238434 0.025452
0.389954 0.239166 0.022369
0.416443 0.236023 0.022217
0.440521 0.233643 0.022186
0.464386 0.231506 0.021790
0.487152 0.229614 0.022247
0.513428 0.227783 0.021881
0.540405 0.226166 0.022003
0.569031 0.224548 0.021606
0.597656 0.222992 0.021210
0.625519 0.221619 0.020844
0.650543 0.220703 0.021088
0.674561 0.219635 0.020813
0.696838 0.218750 0.020538
0.717651 0.217926 0.020294
0.735901 0.217651 0.020721
0.754883 0.216888 0.020508
0.774872 0.215668 0.019592
0.792297 0.215668 0.020111
0.811432 0.214935 0.019867
0.831482 0.214325 0.019653
0.848419 0.214355 0.020264
0.115936 0.224243 0.060913
0.115936 0.224243 0.060913
0.123962 0.224243 0.060913
0.139130 0.224243 0.060913
0.153625 0.227448 0.058685
0.168793 0.240265 0.049835
0.192993 0.254517 0.040466
0.228912 0.270233 0.030731
0.271088 0.277222 0.026642
0.311157 0.277222 0.026642
0.349060 0.276733 0.026367
0.383331 0.276245 0.026093
0.416840 0.277191 0.023987
0.448242 0.277740 0.021698
0.472382 0.275146 0.021271
0.496796 0.272522 0.020844
0.522369 0.270081 0.020844
0.549438 0.267639 0.020905
0.577240 0.265564 0.020966
0.605896 0.263550 0.020569
0.632690 0.261902 0.020752
0.658813 0.260376 0.020416
0.682953 0.259033 0.020111
0.705109 0.257782 0.019806
0.724701 0.257111 0.020203
0.744385 0.256226 0.019958
0.763367 0.255371 0.019714
0.782104 0.254608 0.019501
0.800873 0.253662 0.019257
0.820068 0.252899 0.019043
0.840149 0.252197 0.018829
0.858582 0.251343 0.018585
0.123840 0.252747 0.066376
0.123840 0.252747 0.066376
0.131866 0.252747 0.066376
0.147034 0.252747 0.066376
0.162964 0.252747 0.066376
0.176117 0.265015 0.057739
0.196777 0.278931 0.048309
0.227417 0.295074 0.037964
0.269562 0.312408 0.027618
0.310638 0.314545 0.026367
0.349060 0.314545 0.026367
0.383331 0.314117 0.026093
0.413483 0.313751 0.025879
0.440979 0.313385 0.025665
0.471436 0.314514 0.023315
0.503021 0.315308 0.020752
0.530151 0.312683 0.020294
0.557312 0.309601 0.020294
0.586029 0.306763 0.019836
0.613861 0.304230 0.019928
0.641815 0.301971 0.019501
0.666870 0.300171 0.019714
0.691071 0.298492 0.019379
0.713379 0.296967 0.019073
0.732880 0.295868 0.019470
0.753845 0.294495 0.018494
0.771667 0.293793 0.018951
0.790405 0.292816 0.018707
0.809082 0.291748 0.018463
0.826935 0.291138 0.018982
0.847015 0.290192 0.018738
0.867065 0.288879 0.017731
0.130981 0.278748 0.071381
0.130981 0.278748 0.071381
0.139008 0.278748 0.071381
0.154175 0.278748 0.071381
0.170105 0.278748 0.071381
0.183868 0.287201 0.065338
0.201721 0.302307 0.054901
0.228882 0.318085 0.044525
0.266052 0.335175 0.033936
0.310150 0.348663 0.026093
0.348633 0.348663 0.026093
0.383331 0.348663 0.026093
0.413483 0.348267 0.025879
0.440979 0.347839 0.025665
0.467560 0.347565 0.025482
0.495575 0.347565 0.024811
0.529388 0.348816 0.022125
0.565399 0.349335 0.019196
0.593323 0.345764 0.019196
0.622162 0.342621 0.018738
0.649139 0.339844 0.018829
0.674347 0.337494 0.019012
0.698456 0.335510 0.018677
0.720795 0.333771 0.018341
0.740356 0.332275 0.018707
0.760101 0.330841 0.018402
0.779205 0.329620 0.018158
0.796539 0.328522 0.018616
0.815399 0.327576 0.018372
0.836090 0.326050 0.017365
0.854675 0.325165 0.017883
0.873291 0.324249 0.017639
0.137238 0.301819 0.075836
0.137238 0.301819 0.075836
0.145294 0.301819 0.075836
0.160461 0.301819 0.075836
0.176331 0.301819 0.075836
0.191101 0.307129 0.072021
0.207214 0.321777 0.061707
0.231659 0.337799 0.050903
0.265289 0.355286 0.039734
0.307251 0.372833 0.029327
0.348236 0.378906 0.025879
0.382935 0.378906 0.025879
0.413483 0.378906 0.025879
0.440979 0.378571 0.025665
0.467560 0.378143 0.025482
0.494751 0.377808 0.025269
0.524078 0.377380 0.025055
0.558990 0.378632 0.022736
0.596344 0.379608 0.019684
0.627777 0.377502 0.018646
0.655792 0.374359 0.018158
0.681030 0.371368 0.018341
0.705170 0.369080 0.017975
0.727509 0.367096 0.017609
0.747223 0.365326 0.017944
0.765656 0.363586 0.018341
0.786011 0.362122 0.017365
0.803436 0.360840 0.017822
0.822327 0.359619 0.017548
0.841583 0.358276 0.017303
0.861755 0.356995 0.017029
0.878754 0.356079 0.017548
0.142975 0.323029 0.079987
0.142975 0.323029 0.079987
0.151031 0.323029 0.079987
0.166199 0.323029 0.079987
0.182068 0.323029 0.079987
0.197754 0.325897 0.077881
0.212860 0.339600 0.068054
0.235168 0.356293 0.056641
0.266113 0.373749 0.045258
0.304688 0.391266 0.034485
0.347870 0.406677 0.025665
0.382507 0.406677 0.025665
0.413147 0.406677 0.025665
0.440979 0.406677 0.025665
0.467560 0.406342 0.025482
0.494751 0.405975 0.025269
0.524078 0.405548 0.025055
0.555237 0.405090 0.024811
0.591309 0.406433 0.022369
0.627930 0.407349 0.019714
0.661957 0.406769 0.017487
0.687225 0.403442 0.017639
0.710205 0.400421 0.017883
0.732635 0.398315 0.017517
0.752197 0.396149 0.017883
0.772003 0.394409 0.017578
0.791077 0.392731 0.017303
0.809906 0.391083 0.017029
0.828735 0.389648 0.016754
0.846619 0.388184 0.017242
0.868225 0.386597 0.016205
0.885345 0.385529 0.016724
0.148499 0.343628 0.084015
0.148499 0.343628 0.084015
0.156525 0.343628 0.084015
0.171722 0.343628 0.084015
0.187592 0.343628 0.084015
0.204651 0.343628 0.084015
0.218323 0.358368 0.073334
0.239075 0.374725 0.061920
0.267853 0.391937 0.050537
0.303650 0.409210 0.039642
0.344543 0.426575 0.029419
0.382233 0.433685 0.025482
0.412720 0.433685 0.025482
0.440643 0.433685 0.025482
0.467560 0.433685 0.025482
0.494751 0.433319 0.025269
0.524078 0.432922 0.025055
0.555237 0.432495 0.024811
0.587280 0.432068 0.024567
0.622589 0.433105 0.022583
0.658447 0.434265 0.019836
0.691711 0.434448 0.017548
0.716370 0.431854 0.017151
0.737457 0.428986 0.017456
0.759705 0.426910 0.016479
0.778229 0.424713 0.016815
0.797302 0.422852 0.016541
0.816193 0.421234 0.016235
0.833649 0.419342 0.016693
0.852936 0.417786 0.016418
0.873016 0.416046 0.016144
0.890106 0.414642 0.016663
0.154144 0.364777 0.088165
0.154144 0.364777 0.088165
0.162170 0.364777 0.088165
0.177368 0.364777 0.088165
0.193237 0.364777 0.088165
0.210327 0.364777 0.088165
0.224945 0.375610 0.080261
0.243896 0.392334 0.068420
0.270508 0.409912 0.056519
0.303802 0.427643 0.045105
0.341797 0.444519 0.034851
0.381439 0.460632 0.025726
0.412384 0.461487 0.025269
0.440277 0.461487 0.025269
0.467194 0.461487 0.025269
0.494751 0.461487 0.025269
0.524078 0.461151 0.025055
0.555237 0.460632 0.024811
0.587280 0.460236 0.024567
0.619385 0.459808 0.024323
0.652802 0.460449 0.022858
0.686981 0.461914 0.020050
0.717957 0.462372 0.017761
0.743713 0.461487 0.016724
0.764679 0.459015 0.016388
0.783112 0.456421 0.016754
0.802216 0.454346 0.016449
0.821075 0.452362 0.016174
0.840027 0.450592 0.015900
0.857788 0.448425 0.016357
0.879547 0.446869 0.015289
0.896667 0.445221 0.015808
0.160248 0.387756 0.092743
0.160248 0.387756 0.092743
0.168304 0.387756 0.092743
0.183472 0.387756 0.092743
0.199341 0.387756 0.092743
0.216400 0.387756 0.092743
0.231812 0.395813 0.086823
0.249359 0.412842 0.074554
0.274139 0.429932 0.062775
0.305145 0.447113 0.051483
0.340637 0.465240 0.040161
0.377319 0.480713 0.031097
0.411987 0.491638 0.025055
0.439850 0.491638 0.025055
0.466797 0.491638 0.025055
0.494415 0.491638 0.025055
0.524078 0.491638 0.025055
0.555237 0.491241 0.024811
0.587280 0.490814 0.024567
0.619385 0.490295 0.024323
0.650543 0.489899 0.024109
0.681030 0.490112 0.023224
0.711792 0.491272 0.020996
0.740723 0.492279 0.018707
0.766998 0.492554 0.016998
0.789856 0.491516 0.015991
0.809113 0.489410 0.015686
0.827911 0.487000 0.015381
0.846893 0.485077 0.015076
0.866272 0.482941 0.014771
0.884918 0.480560 0.015198
0.902100 0.478821 0.015717
0.166748 0.412323 0.097656
0.166748 0.412323 0.097656
0.174805 0.412323 0.097656
0.189972 0.412323 0.097656
0.205902 0.412323 0.097656
0.222900 0.412323 0.097656
0.239471 0.417114 0.094086
0.255951 0.433441 0.082153
0.278870 0.450836 0.069946
0.307587 0.469208 0.057556
0.340454 0.485748 0.046967
0.374817 0.502319 0.036896
0.408447 0.515991 0.029083
0.439423 0.523834 0.024811
0.466370 0.523834 0.024811
0.493927 0.523834 0.024811
0.523682 0.523834 0.024811
0.555237 0.523834 0.024811
0.587280 0.523407 0.024567
0.619385 0.522919 0.024323
0.650543 0.522552 0.024109
0.679871 0.522064 0.023865
0.706848 0.521729 0.023682
0.734314 0.522614 0.022095
0.760345 0.523438 0.020447
0.786682 0.524384 0.018066
0.811127 0.524811 0.016327
0.835022 0.524811 0.014557
0.852478 0.522034 0.014984
0.872009 0.519867 0.014679
0.890625 0.517242 0.015137
0.910919 0.515442 0.014038
0.173401 0.437683 0.102753
0.173401 0.437683 0.102753
0.181488 0.437683 0.102753
0.196625 0.437683 0.102753
0.212555 0.437683 0.102753
0.229584 0.437683 0.102753
0.247864 0.438690 0.101990
0.263062 0.455170 0.089783
0.284302 0.472717 0.077209
0.311035 0.491394 0.064423
0.341675 0.508026 0.053528
0.373779 0.524719 0.043091
0.405090 0.538300 0.035034
0.436310 0.550873 0.027954
0.465973 0.557159 0.024567
0.493530 0.557159 0.024567
0.523285 0.557159 0.024567
0.554810 0.557159 0.024567
0.587280 0.557159 0.024567
0.619385 0.556732 0.024323
0.650543 0.556305 0.024109
0.679871 0.555939 0.023865
0.706848 0.555420 0.023682
0.731750 0.555145 0.023499
0.755035 0.554871 0.023315
0.779846 0.555908 0.021667
0.804047 0.556580 0.019958
0.828094 0.557312 0.018219
0.852356 0.557831 0.016418
0.877350 0.558350 0.014587
0.898010 0.556030 0.014252
0.916779 0.553925 0.013947
0.180084 0.463257 0.107910
0.180084 0.463257 0.107910
0.188110 0.463257 0.107910
0.203339 0.463257 0.107910
0.219177 0.463257 0.107910
0.236237 0.463257 0.107910
0.255005 0.463257 0.107910
0.270386 0.477539 0.097260
0.289978 0.496246 0.083679
0.315186 0.513885 0.071350
0.343964 0.530548 0.060211
0.373779 0.546082 0.050232
0.403290 0.560547 0.041351
0.432892 0.573944 0.033539
0.463593 0.586243 0.026733
0.493103 0.590729 0.024323
0.522766 0.590729 0.024323
0.554321 0.590729 0.024323
0.586853 0.590729 0.024323
0.619385 0.590729 0.024323
0.650543 0.590240 0.024109
0.679871 0.589844 0.023865
0.706848 0.589478 0.023682
0.731750 0.589142 0.023499
0.755035 0.588776 0.023315
0.777100 0.588440 0.023163
0.798401 0.588257 0.022980
0.822296 0.589417 0.021271
0.846405 0.590302 0.019501
0.871185 0.591125 0.017670
0.897064 0.591705 0.015778
0.921448 0.592102 0.013885
0.186584 0.488190 0.113007
0.186584 0.488190 0.113007
0.194672 0.488190 0.113007
0.209839 0.488190 0.113007
0.225647 0.488190 0.113007
0.242798 0.488190 0.113007
0.261566 0.488190 0.113007
0.278015 0.498657 0.105072
0.296661 0.516174 0.092194
0.319946 0.534882 0.078857
0.346924 0.552490 0.066803
0.375061 0.567810 0.056763
0.402771 0.581970 0.047821
0.430450 0.594971 0.040009
0.459625 0.608032 0.032471
0.491089 0.619904 0.026001
0.522400 0.623474 0.024109
0.553986 0.623474 0.024109
0.586456 0.623474 0.024109
0.618927 0.623474 0.024109
0.650543 0.623474 0.024109
0.679871 0.623077 0.023865
0.706848 0.622681 0.023682
0.731750 0.622253 0.023499
0.755035 0.621979 0.023315
0.777100 0.621582 0.023163
0.798401 0.621429 0.022980
0.819366 0.621124 0.022858
0.840424 0.620667 0.022705
0.865051 0.622009 0.020874
0.890747 0.622925 0.019012
0.914978 0.623901 0.017120
0.192688 0.511749 0.117828
0.192688 0.511749 0.117828
0.200745 0.511749 0.117828
0.215912 0.511749 0.117828
0.231842 0.511749 0.117828
0.248871 0.511749 0.117828
0.267639 0.511749 0.117828
0.285217 0.519104 0.112213
0.302582 0.537567 0.098450
0.324768 0.556061 0.085114
0.350555 0.572144 0.073944
0.377167 0.589508 0.062317
0.403320 0.603180 0.053528
0.429626 0.615662 0.045807
0.456909 0.628113 0.038391
0.487122 0.640594 0.031281
0.522003 0.654419 0.023865
0.553528 0.654419 0.023865
0.586090 0.654419 0.023865
0.618530 0.654419 0.023865
0.650177 0.654419 0.023865
0.679871 0.654419 0.023865
0.706848 0.654022 0.023682
0.731750 0.653625 0.023499
0.755035 0.653351 0.023315
0.777100 0.653015 0.023163
0.798401 0.652679 0.022980
0.819366 0.652435 0.022858
0.840424 0.652069 0.022705
0.861969 0.651703 0.022522
0.884430 0.651520 0.022369
0.908478 0.652832 0.020477
0.198303 0.533508 0.122314
0.198303 0.533508 0.122314
0.206360 0.533508 0.122314
0.221558 0.533508 0.122314
0.237366 0.533508 0.122314
0.254456 0.533508 0.122314
0.273224 0.533508 0.122314
0.291687 0.538635 0.118317
0.308411 0.556702 0.104767
0.329956 0.573486 0.092529
0.354126 0.591583 0.079712
0.379578 0.607178 0.069122
0.404510 0.621490 0.059723
0.429474 0.634521 0.051422
0.455841 0.647614 0.043457
0.484283 0.659393 0.036560
0.517853 0.673798 0.028534
0.553192 0.683014 0.023682
0.585602 0.683014 0.023682
0.618195 0.683014 0.023682
0.649811 0.683014 0.023682
0.679504 0.683014 0.023682
0.706848 0.683014 0.023682
0.731750 0.682617 0.023499
0.755035 0.682312 0.023315
0.777100 0.681976 0.023163
0.798401 0.681702 0.022980
0.819366 0.681335 0.022858
0.840424 0.681152 0.022705
0.861969 0.680786 0.022522
0.884430 0.680511 0.022369
0.905243 0.680084 0.022217
0.203461 0.553680 0.126465
0.203461 0.553680 0.126465
0.211548 0.553680 0.126465
0.226685 0.553680 0.126465
0.242554 0.553680 0.126465
0.259644 0.553680 0.126465
0.278412 0.553680 0.126465
0.298584 0.554993 0.125427
0.314697 0.572449 0.112152
0.334259 0.592621 0.097260
0.357880 0.608826 0.085693
0.382202 0.625031 0.074463
0.406219 0.639984 0.064545
0.430176 0.652191 0.056671
0.455475 0.665802 0.048218
0.483032 0.678040 0.040863
0.514984 0.691711 0.033020
0.550995 0.705353 0.025635
0.585327 0.709503 0.023499
0.617859 0.709503 0.023499
0.649384 0.709503 0.023499
0.679108 0.709503 0.023499
0.706482 0.709503 0.023499
0.731750 0.709503 0.023499
0.755035 0.709198 0.023315
0.777100 0.708801 0.023163
0.798401 0.708557 0.022980
0.819366 0.708130 0.022858
0.840424 0.707886 0.022705
0.861969 0.707611 0.022522
0.884430 0.707275 0.022369
0.905243 0.707092 0.022217
0.208313 0.572571 0.130402
0.208313 0.572571 0.130402
0.216400 0.572571 0.130402
0.231567 0.572571 0.130402
0.247437 0.572571 0.130402
0.264465 0.572571 0.130402
0.283295 0.572571 0.130402
0.304047 0.572571 0.130402
0.319458 0.590698 0.116516
0.339355 0.607452 0.104034
0.361572 0.625641 0.090912
0.385101 0.641052 0.080078
0.408142 0.655121 0.070557
0.431274 0.669220 0.061340
0.455170 0.680511 0.054169
0.482117 0.694611 0.045471
0.512634 0.707367 0.037994
0.548126 0.722961 0.029297
0.585083 0.734344 0.023315
0.617523 0.734344 0.023315
0.649139 0.734344 0.023315
0.678864 0.734344 0.023315
0.706177 0.734344 0.023315
0.731476 0.734344 0.023315
0.755035 0.734344 0.023315
0.777100 0.733978 0.023163
0.798401 0.733704 0.022980
0.819366 0.733429 0.022858
0.840424 0.733063 0.022705
0.861969 0.732880 0.022522
0.884430 0.732391 0.022369
0.905243 0.732147 0.022217
0.212921 0.590546 0.134155
0.212921 0.590546 0.134155
0.220947 0.590546 0.134155
0.236145 0.590546 0.134155
0.252014 0.590546 0.134155
0.269073 0.590546 0.134155
0.287903 0.590546 0.134155
0.308655 0.590546 0.134155
0.325226 0.604980 0.123016
0.343750 0.623718 0.108887
0.365417 0.641083 0.096222
0.387848 0.658508 0.083923
0.410187 0.671600 0.074982
0.432648 0.684723 0.066254
0.455933 0.697815 0.057800
0.481873 0.710999 0.049591
0.511444 0.724182 0.041718
0.545441 0.738861 0.033356
0.582855 0.753540 0.025452
0.617218 0.757965 0.023163
0.648773 0.757965 0.023163
0.678558 0.757965 0.023163
0.705872 0.757965 0.023163
0.731079 0.757965 0.023163
0.754700 0.757965 0.023163
0.777100 0.757965 0.023163
0.798401 0.757629 0.022980
0.819366 0.757233 0.022858
0.840424 0.757111 0.022705
0.861969 0.756714 0.022522
0.884430 0.756439 0.022369
0.905243 0.755951 0.022217
0.217346 0.607971 0.137787
0.217346 0.607971 0.137787
0.225403 0.607971 0.137787
0.240540 0.607971 0.137787
0.256470 0.607971 0.137787
0.273529 0.607971 0.137787
0.292328 0.607971 0.137787
0.313080 0.607971 0.137787
0.330414 0.619873 0.128510
0.348175 0.639221 0.113831
0.369446 0.655670 0.101746
0.391113 0.672150 0.089996
0.412567 0.687164 0.079559
0.434235 0.699158 0.071472
0.456818 0.712708 0.062561
0.481659 0.724792 0.054932
0.510468 0.738373 0.046631
0.543274 0.753510 0.037750
0.579529 0.768677 0.029358
0.617035 0.780823 0.022980
0.648621 0.780823 0.022980
0.678223 0.780823 0.022980
0.705627 0.780823 0.022980
0.730865 0.780823 0.022980
0.754456 0.780823 0.022980
0.776794 0.780823 0.022980
0.798401 0.780823 0.022980
0.819366 0.780457 0.022858
0.840424 0.780212 0.022705
0.861969 0.779785 0.022522
0.884430 0.779541 0.022369
0.905243 0.779175 0.022217
0.221710 0.625153 0.141388
0.221710 0.625153 0.141388
0.229797 0.625153 0.141388
0.244934 0.625153 0.141388
0.260803 0.625153 0.141388
0.277924 0.625153 0.141388
0.296631 0.625153 0.141388
0.317444 0.625153 0.141388
0.335785 0.634338 0.134186
0.352753 0.654327 0.118927
0.372864 0.672821 0.105255
0.394348 0.686707 0.095215
0.415253 0.700592 0.085449
0.436035 0.714539 0.075928
0.458038 0.726929 0.067688
0.482208 0.740936 0.058685
0.510223 0.754944 0.049988
